src/pipe/core/color/luts/aces2_sdr_rec709.cube
# aces2_sdr_rec709.cube: ACEScct-domain 3D LUT -> display-linear Rec.709
LUT_3D_SIZE 5
0.0000000 0.0000000 0.0000000
0.0016622 0.0000000 0.0000090
0.3784540 0.0000000 0.0021458
1.0000000 0.2338870 0.1702079
1.0000000 0.9817700 0.9785144
0.0000000 0.0020366 0.0002791
0.0039700 0.0039035 0.0000000
0.3941785 0.0084564 0.0000000
1.0000000 0.2369493 0.1710948
1.0000000 0.9817865 0.9785305
0.0000000 0.2776452 0.0373246
0.0000000 0.2844047 0.0289902
0.3129976 0.3080852 0.0000000
1.0000000 0.3090556 0.2019824
1.0000000 0.9821230 0.9788714
0.3175610 1.0000000 0.3660118
0.3193083 1.0000000 0.3660138
0.3529982 1.0000000 0.3653689
1.0000000 1.0000000 0.2488285
0.9997863 0.9874111 0.9842627
0.9973203 0.9999113 0.9970845
0.9973214 0.9999107 0.9970864
0.9973623 0.9999116 0.9971229
0.9981445 0.9999152 0.9978693
1.0000000 1.0000000 1.0000000
0.0000000 0.0000357 0.0003780
0.0028752 0.0000000 0.0019797
0.3764279 0.0000000 0.0241860
1.0000000 0.2375059 0.1823877
1.0000000 0.9818164 0.9785879
0.0000000 0.0028764 0.0026905
0.0044951 0.0044951 0.0044951
0.4133729 0.0013052 0.0172638
1.0000000 0.2428578 0.1853206
1.0000000 0.9818330 0.9786053
0.0000000 0.2755952 0.0580149
0.0000000 0.2822618 0.0508700
0.3123415 0.3029499 0.0028206
1.0000000 0.3170983 0.2176936
1.0000000 0.9821694 0.9789449
0.3243424 1.0000000 0.3755893
0.3260853 1.0000000 0.3756019
0.3597115 1.0000000 0.3751749
1.0000000 1.0000000 0.2548327
0.9997839 0.9874307 0.9843005
0.9973203 0.9999110 0.9970858
0.9973233 0.9999110 0.9970885
0.9973614 0.9999116 0.9971256
0.9981428 0.9999155 0.9978706
1.0000000 1.0000000 1.0000000
0.0000000 0.0151737 0.1551825
0.0019816 0.0000000 0.2309393
0.4103409 0.0000000 0.2822901
1.0000000 0.2388951 0.2737655
1.0000000 0.9826357 0.9798799
0.0000000 0.0282270 0.1622485
0.0003660 0.0168053 0.2276740
0.4256766 0.0011786 0.2971160
1.0000000 0.2446797 0.2771763
1.0000000 0.9826524 0.9798952
0.0000000 0.2884807 0.2697144
0.0000000 0.2916570 0.2730438
0.2862711 0.2862710 0.2862710
1.0000000 0.3686960 0.3570116
0.9999908 0.9829575 0.9801953
0.3472777 1.0000000 0.4572702
0.3507707 1.0000000 0.4586459
0.4164844 1.0000000 0.4848614
0.9995380 1.0000000 0.3466446
0.9997182 0.9878160 0.9850090
0.9973457 0.9999127 0.9971356
0.9973484 0.9999127 0.9971381
0.9973896 0.9999119 0.9971736
0.9981656 0.9999167 0.9979113
1.0000000 1.0000000 1.0000000
0.1939394 0.3285796 1.0000000
0.1983228 0.3284010 1.0000000
0.2773817 0.3200705 1.0000000
1.0000000 0.4285153 0.8446490
0.9997700 0.9851627 0.9851925
0.1953193 0.3329844 1.0000000
0.2003528 0.3334255 1.0000000
0.2788488 0.3249978 1.0000000
1.0000000 0.4337633 0.8462060
0.9997678 0.9851803 0.9852076
0.2204549 0.4123834 1.0000000
0.2261159 0.4135807 1.0000000
0.3276297 0.4329419 1.0000000
1.0000000 0.5325590 0.8747255
0.9997399 0.9855203 0.9855101
0.3758031 1.0000000 0.9637507
0.3776655 1.0000000 0.9638468
0.4128773 1.0000000 0.9655498
0.9140029 0.9140024 0.9140029
0.9994160 0.9904042 0.9898748
0.9977384 0.9999336 0.9978673
0.9977406 0.9999328 0.9978679
0.9977804 0.9999328 0.9978990
0.9985429 0.9999403 0.9985456
1.0000000 1.0000000 1.0000000
0.9504355 0.9637372 1.0000000
0.9504872 0.9637610 1.0000000
0.9514818 0.9642195 1.0000000
0.9639485 0.9689047 1.0000000
0.9996809 0.9966877 0.9984853
0.9504648 0.9637690 1.0000000
0.9505157 0.9637921 1.0000000
0.9515101 0.9642503 1.0000000
0.9639752 0.9689363 1.0000000
0.9996816 0.9966893 0.9984863
0.9510667 0.9643833 1.0000000
0.9511173 0.9644070 1.0000000
0.9520928 0.9648527 1.0000000
0.9644809 0.9695407 1.0000000
0.9996809 0.9967473 0.9985116
0.9609712 0.9742631 1.0000000
0.9610031 0.9742759 1.0000000
0.9616564 0.9745288 1.0000000
0.9723232 0.9787453 1.0000000
0.9997342 0.9977726 0.9989652
1.0000000 1.0000000 1.0000000
1.0000000 1.0000000 1.0000000
1.0000000 1.0000000 1.0000000
1.0000000 1.0000000 1.0000000
1.0000000 1.0000000 1.0000000
