src/pipe/core/color/luts/aces2_sdr_rec709.cube
# aces2_sdr_rec709.cube: ACEScct-domain 3D LUT -> display-linear Rec.709
LUT_3D_SIZE 9
0.0000000 0.0000000 0.0000000
0.0000442 0.0000000 0.0000002
0.0016622 0.0000000 0.0000090
0.0380981 0.0000000 0.0002247
0.3784540 0.0000000 0.0021458
1.0000000 0.0502596 0.0333349
1.0000000 0.2338870 0.1702079
1.0000000 0.6296722 0.5683533
1.0000000 0.9817700 0.9785144
0.0000000 0.0000566 0.0000078
0.0001258 0.0001236 0.0000000
0.0023537 0.0003496 0.0000000
0.0416253 0.0007095 0.0000000
0.3866206 0.0000000 0.0009126
1.0000000 0.0517039 0.0330970
1.0000000 0.2345026 0.1703870
1.0000000 0.6299599 0.5686169
1.0000000 0.9817724 0.9785166
0.0000000 0.0020366 0.0002791
0.0000000 0.0026393 0.0000000
0.0039700 0.0039035 0.0000000
0.0470995 0.0078634 0.0000000
0.3941785 0.0084564 0.0000000
1.0000000 0.0574429 0.0321062
1.0000000 0.2369493 0.1710948
1.0000000 0.6311049 0.5696660
1.0000000 0.9817865 0.9785305
0.0000000 0.0390081 0.0053264
0.0000000 0.0405412 0.0043356
0.0007407 0.0456454 0.0000000
0.0557598 0.0548498 0.0000000
0.3832571 0.0642584 0.0000000
1.0000000 0.0913702 0.0327651
1.0000000 0.2478029 0.1742325
1.0000000 0.6365303 0.5747551
1.0000000 0.9818477 0.9785931
0.0000000 0.2776452 0.0373246
0.0000000 0.2791130 0.0357978
0.0000000 0.2844047 0.0289902
0.0056235 0.3063558 0.0000000
0.3129976 0.3080852 0.0000000
1.0000000 0.2440318 0.0367340
1.0000000 0.3090556 0.2019824
1.0000000 0.6609173 0.5980619
1.0000000 0.9821230 0.9788714
0.0000000 0.7637435 0.0960967
0.0000000 0.7646946 0.0951769
0.0000000 0.7687647 0.0913780
0.0000000 0.7875171 0.0733158
0.0147949 0.8659976 0.0000000
0.7683502 0.7573882 0.0000000
1.0000000 0.5602087 0.3464648
1.0000000 0.7540158 0.6910391
1.0000000 0.9833098 0.9800752
0.3175610 1.0000000 0.3660118
0.3179122 1.0000000 0.3660117
0.3193083 1.0000000 0.3660138
0.3254897 1.0000000 0.3659886
0.3529982 1.0000000 0.3653689
0.4784390 1.0000000 0.3636309
1.0000000 1.0000000 0.2488285
1.0000000 0.9113216 0.8565074
0.9997863 0.9874111 0.9842627
0.8646644 1.0000000 0.8602222
0.8646889 1.0000000 0.8602310
0.8647838 1.0000000 0.8602617
0.8652099 1.0000000 0.8604019
0.8671463 1.0000000 0.8610475
0.8754985 1.0000000 0.8636901
0.9077426 1.0000000 0.8731242
0.9978077 1.0000000 0.8609576
0.9997060 0.9955777 0.9930614
0.9973203 0.9999113 0.9970845
0.9973198 0.9999107 0.9970843
0.9973214 0.9999107 0.9970864
0.9973285 0.9999116 0.9970933
0.9973623 0.9999116 0.9971229
0.9975123 0.9999113 0.9972602
0.9981445 0.9999152 0.9978693
1.0000000 1.0000000 1.0000000
1.0000000 1.0000000 1.0000000
0.0000000 0.0000009 0.0000098
0.0000813 0.0000000 0.0000560
0.0018975 0.0000000 0.0003468
0.0387494 0.0000000 0.0023426
0.3773416 0.0000000 0.0079795
1.0000000 0.0497232 0.0385177
1.0000000 0.2360792 0.1740734
1.0000000 0.6311463 0.5703464
1.0000000 0.9817788 0.9785281
0.0000000 0.0000860 0.0000804
0.0001532 0.0001532 0.0001532
0.0034749 0.0000820 0.0002922
0.0445746 0.0000655 0.0017461
0.3852209 0.0000000 0.0066756
1.0000000 0.0513255 0.0383562
1.0000000 0.2367026 0.1742596
1.0000000 0.6314340 0.5706097
1.0000000 0.9817826 0.9785324
0.0000000 0.0021676 0.0008199
0.0000105 0.0027871 0.0007004
0.0043331 0.0040772 0.0001370
0.0561625 0.0049467 0.0002182
0.4152463 0.0010361 0.0014994
1.0000000 0.0586977 0.0383094
1.0000000 0.2391814 0.1749947
1.0000000 0.6325791 0.5716596
1.0000000 0.9817958 0.9785466
0.0000000 0.0388556 0.0080314
0.0000000 0.0406791 0.0072487
0.0000987 0.0465941 0.0023537
0.0562327 0.0544699 0.0000000
0.3995038 0.0583471 0.0000000
1.0000000 0.0905446 0.0373723
1.0000000 0.2500032 0.1780955
1.0000000 0.6378241 0.5765334
1.0000000 0.9818579 0.9786083
0.0000000 0.2771240 0.0421549
0.0000000 0.2786106 0.0406656
0.0000000 0.2839102 0.0342673
0.0000000 0.3081964 0.0000000
0.3128561 0.3068005 0.0000000
1.0000000 0.2441909 0.0413939
1.0000000 0.3106662 0.2052070
1.0000000 0.6621094 0.5997251
1.0000000 0.9821325 0.9788854
0.0000000 0.7636207 0.0991877
0.0000000 0.7645410 0.0982948
0.0000000 0.7689073 0.0948829
0.0000000 0.7876434 0.0769352
0.0112256 0.8689519 0.0000000
0.7690563 0.7575302 0.0000000
1.0000000 0.5616148 0.3495702
1.0000000 0.7548800 0.6923211
1.0000000 0.9833166 0.9800864
0.3189445 1.0000000 0.3679621
0.3192934 1.0000000 0.3679629
0.3206887 1.0000000 0.3679657
0.3268678 1.0000000 0.3679492
0.3543774 1.0000000 0.3673741
0.4792984 1.0000000 0.3653547
1.0000000 1.0000000 0.2500518
1.0000000 0.9114423 0.8567909
0.9997850 0.9874154 0.9842708
0.8647476 1.0000000 0.8603572
0.8647677 1.0000000 0.8603636
0.8648673 1.0000000 0.8603956
0.8652896 1.0000000 0.8605321
0.8672290 1.0000000 0.8611804
0.8755697 1.0000000 0.8638157
0.9077777 1.0000000 0.8732190
0.9978134 1.0000000 0.8609890
0.9997063 0.9955786 0.9930628
0.9973209 0.9999113 0.9970851
0.9973209 0.9999113 0.9970854
0.9973214 0.9999107 0.9970875
0.9973309 0.9999119 0.9970942
0.9973612 0.9999119 0.9971241
0.9975123 0.9999107 0.9972610
0.9981445 0.9999152 0.9978693
1.0000000 1.0000000 1.0000000
1.0000000 1.0000000 1.0000000
0.0000000 0.0000357 0.0003780
0.0002133 0.0000000 0.0008234
0.0028752 0.0000000 0.0019797
0.0418690 0.0000000 0.0082403
0.3764279 0.0000000 0.0241860
1.0000000 0.0482348 0.0552291
1.0000000 0.2375059 0.1823877
1.0000000 0.6370375 0.5782673
1.0000000 0.9818164 0.9785879
0.0000000 0.0002624 0.0006981
0.0000987 0.0001668 0.0019167
0.0041272 0.0000966 0.0029945
0.0472967 0.0000753 0.0082673
0.3841589 0.0000000 0.0228349
1.0000000 0.0498594 0.0550586
1.0000000 0.2385739 0.1829703
1.0000000 0.6373051 0.5785088
1.0000000 0.9818193 0.9785904
0.0000000 0.0028764 0.0026905
0.0000086 0.0034148 0.0032096
0.0044951 0.0044951 0.0044951
0.0674586 0.0018554 0.0059880
0.4133729 0.0013052 0.0172638
1.0000000 0.0572949 0.0550119
1.0000000 0.2428578 0.1853206
1.0000000 0.6383756 0.5794765
1.0000000 0.9818330 0.9786053
0.0000000 0.0394743 0.0156022
0.0000000 0.0411039 0.0152509
0.0003249 0.0475188 0.0122611
0.0574981 0.0541795 0.0029175
0.4489060 0.0416510 0.0042744
1.0000000 0.0905485 0.0546877
1.0000000 0.2587296 0.1930009
1.0000000 0.6433458 0.5840324
1.0000000 0.9818950 0.9786676
0.0000000 0.2755952 0.0580149
0.0000000 0.2770456 0.0566405
0.0000000 0.2822618 0.0508700
0.0024959 0.3052251 0.0180979
0.3123415 0.3029499 0.0028206
1.0000000 0.2451005 0.0582282
1.0000000 0.3170983 0.2176936
1.0000000 0.6671163 0.6066170
1.0000000 0.9821694 0.9789449
0.0000000 0.7632710 0.1110164
0.0000000 0.7643890 0.1102137
0.0000000 0.7688010 0.1069140
0.0000000 0.7880896 0.0907120
0.0000000 0.8799313 0.0000000
0.7715353 0.7579885 0.0000000
1.0000000 0.5671096 0.3615841
1.0000000 0.7582170 0.6972743
1.0000000 0.9833469 0.9801373
0.3243424 1.0000000 0.3755893
0.3246886 1.0000000 0.3755910
0.3260853 1.0000000 0.3756019
0.3322552 1.0000000 0.3756183
0.3597115 1.0000000 0.3751749
0.4826849 1.0000000 0.3721385
1.0000000 1.0000000 0.2548327
1.0000000 0.9119163 0.8579043
0.9997839 0.9874307 0.9843005
0.8650782 1.0000000 0.8608893
0.8651009 1.0000000 0.8608962
0.8651955 1.0000000 0.8609282
0.8656134 1.0000000 0.8610585
0.8675447 1.0000000 0.8616989
0.8758563 1.0000000 0.8643167
0.9079314 1.0000000 0.8736013
0.9978343 1.0000000 0.8611168
0.9997042 0.9955807 0.9930711
0.9973203 0.9999110 0.9970858
0.9973214 0.9999113 0.9970866
0.9973233 0.9999110 0.9970885
0.9973322 0.9999113 0.9970956
0.9973614 0.9999116 0.9971256
0.9975114 0.9999116 0.9972616
0.9981428 0.9999155 0.9978706
1.0000000 1.0000000 1.0000000
1.0000000 1.0000000 1.0000000
0.0000000 0.0009805 0.0101799
0.0000319 0.0000000 0.0160803
0.0059415 0.0000000 0.0204179
0.0538406 0.0000000 0.0370681
0.3823559 0.0000000 0.0751363
1.0000000 0.0455934 0.1056274
1.0000000 0.2369503 0.2062717
1.0000000 0.6613818 0.6106830
1.0000000 0.9819762 0.9788433
0.0000000 0.0019088 0.0114652
0.0000000 0.0012271 0.0167230
0.0059750 0.0000731 0.0257248
0.0573860 0.0000814 0.0400178
0.3890346 0.0000000 0.0746526
1.0000000 0.0472424 0.1055209
1.0000000 0.2380479 0.2068807
1.0000000 0.6616516 0.6109292
1.0000000 0.9819816 0.9788476
0.0000000 0.0068576 0.0171684
0.0000000 0.0069994 0.0206124
0.0022304 0.0036168 0.0450143
0.0693471 0.0020554 0.0505338
0.4145293 0.0013697 0.0720438
1.0000000 0.0547492 0.1058034
1.0000000 0.2424497 0.2093365
1.0000000 0.6627290 0.6119127
1.0000000 0.9819950 0.9788604
0.0000000 0.0460353 0.0430554
0.0000000 0.0472008 0.0441934
0.0002804 0.0514388 0.0483729
0.0550673 0.0550675 0.0550675
0.4794405 0.0308214 0.0566232
1.0000000 0.0899825 0.1082111
1.0000000 0.2624280 0.2207593
1.0000000 0.6674557 0.6162292
1.0000000 0.9820552 0.9789207
0.0000000 0.2744839 0.1080801
0.0000000 0.2757709 0.1071796
0.0000000 0.2804003 0.1031893
0.0055764 0.2999742 0.0795124
0.3080920 0.2957264 0.0443460
1.0000000 0.2516250 0.1183240
1.0000000 0.3445454 0.2674680
1.0000000 0.6877407 0.6348247
1.0000000 0.9823254 0.9791923
0.0000000 0.7623073 0.1547355
0.0000000 0.7633771 0.1540068
0.0000000 0.7676588 0.1510962
0.0000000 0.7869498 0.1377015
0.0172688 0.8726701 0.0560346
0.7765476 0.7577385 0.0239775
1.0000000 0.5893033 0.4090185
1.0000000 0.7721498 0.7177459
1.0000000 0.9834815 0.9803566
0.3323611 1.0000000 0.3956387
0.3330033 1.0000000 0.3958795
0.3355634 1.0000000 0.3968364
0.3468977 1.0000000 0.4010946
0.3811637 1.0000000 0.4068998
0.4966269 1.0000000 0.4001775
1.0000000 1.0000000 0.2747457
1.0000000 0.9138874 0.8625302
0.9997714 0.9875067 0.9844394
0.8664904 1.0000000 0.8631828
0.8665149 1.0000000 0.8631904
0.8666086 1.0000000 0.8632216
0.8670230 1.0000000 0.8633524
0.8688928 1.0000000 0.8639399
0.8770806 1.0000000 0.8664706
0.9085795 1.0000000 0.8752469
0.9979026 1.0000000 0.8617750
0.9997025 0.9955915 0.9931041
0.9973242 0.9999124 0.9970964
0.9973242 0.9999124 0.9970964
0.9973285 0.9999119 0.9970975
0.9973336 0.9999116 0.9971035
0.9973686 0.9999119 0.9971349
0.9975177 0.9999113 0.9972705
0.9981478 0.9999152 0.9978771
1.0000000 1.0000000 1.0000000
1.0000000 1.0000000 1.0000000
0.0000000 0.0151737 0.1551825
0.0000000 0.0125766 0.1689633
0.0019816 0.0000000 0.2309393
0.0721682 0.0000000 0.2482772
0.4103409 0.0000000 0.2822901
1.0000000 0.0469754 0.2523881
1.0000000 0.2388951 0.2737655
1.0000000 0.6735394 0.6405318
1.0000000 0.9826357 0.9798799
0.0000000 0.0178472 0.1565959
0.0000000 0.0155619 0.1696054
0.0000000 0.0000000 0.2428300
0.0716483 0.0000000 0.2581314
0.4136887 0.0000000 0.2854386
1.0000000 0.0486870 0.2526009
1.0000000 0.2400484 0.2744435
1.0000000 0.6740646 0.6410465
1.0000000 0.9826398 0.9798826
0.0000000 0.0282270 0.1622485
0.0000000 0.0267384 0.1730825
0.0003660 0.0168053 0.2276740
0.0677503 0.0014177 0.2970851
0.4256766 0.0011786 0.2971160
1.0000000 0.0563035 0.2540512
1.0000000 0.2446797 0.2771763
1.0000000 0.6761507 0.6430909
1.0000000 0.9826524 0.9798952
0.0000000 0.0754672 0.1886930
0.0000000 0.0753106 0.1943930
0.0000000 0.0736414 0.2195984
0.0352385 0.0500109 0.3515726
0.4484333 0.0303915 0.3283959
1.0000000 0.0919464 0.2616306
1.0000000 0.2657166 0.2898301
1.0000000 0.6853169 0.6521012
1.0000000 0.9827076 0.9799508
0.0000000 0.2884807 0.2697144
0.0000000 0.2892181 0.2704727
0.0000000 0.2916570 0.2730438
0.0053653 0.3008384 0.2830722
0.2862711 0.2862710 0.2862710
1.0000000 0.2712307 0.3033639
1.0000000 0.3686960 0.3570116
1.0000000 0.7241902 0.6907536
0.9999908 0.9829575 0.9801953
0.0000000 0.7602851 0.2954893
0.0000000 0.7611917 0.2950592
0.0000000 0.7648072 0.2933190
0.0000000 0.7809162 0.2850952
0.0536901 0.8397525 0.2458855
0.7258728 0.7164232 0.2886341
1.0000000 0.6588308 0.5519747
1.0000000 0.8169205 0.7823142
0.9999152 0.9840324 0.9812538
0.3472777 1.0000000 0.4572702
0.3479776 1.0000000 0.4575451
0.3507707 1.0000000 0.4586459
0.3630808 1.0000000 0.4635115
0.4164844 1.0000000 0.4848614
0.5510361 1.0000000 0.5045602
0.9995380 1.0000000 0.3466446
1.0000000 0.9211489 0.8792325
0.9997182 0.9878160 0.9850090
0.8717082 1.0000000 0.8719644
0.8717408 1.0000000 0.8719821
0.8718870 1.0000000 0.8720664
0.8725377 1.0000000 0.8724358
0.8743108 1.0000000 0.8729677
0.8819805 1.0000000 0.8751423
0.9112195 1.0000000 0.8819833
0.9980388 1.0000000 0.8654723
0.9996969 0.9956329 0.9932464
0.9973457 0.9999127 0.9971356
0.9973447 0.9999129 0.9971359
0.9973484 0.9999127 0.9971381
0.9973530 0.9999124 0.9971429
0.9973896 0.9999119 0.9971736
0.9975353 0.9999127 0.9973076
0.9981656 0.9999167 0.9979113
1.0000000 1.0000000 1.0000000
1.0000000 1.0000000 1.0000000
0.0000000 0.0824129 0.8762234
0.0000000 0.0794457 0.8934237
0.0000000 0.0665802 0.9679726
0.0446110 0.0476644 1.0000000
0.3350552 0.0346577 1.0000000
1.0000000 0.0751923 0.7373933
1.0000000 0.2662638 0.4422897
1.0000000 0.6959152 0.7019287
0.9998552 0.9840201 0.9822586
0.0000000 0.0853236 0.8724228
0.0000000 0.0824113 0.8894001
0.0000000 0.0699037 0.9621052
0.0436168 0.0502622 1.0000000
0.3335238 0.0372373 1.0000000
1.0000000 0.0770438 0.7379392
1.0000000 0.2674935 0.4430276
1.0000000 0.6964333 0.7023894
0.9998533 0.9840237 0.9822613
0.0000000 0.0963821 0.8615303
0.0000000 0.0938440 0.8759022
0.0000000 0.0828136 0.9408857
0.0403435 0.0613705 1.0000000
0.3278258 0.0484090 1.0000000
1.0000000 0.0844676 0.7401330
1.0000000 0.2724294 0.4459942
1.0000000 0.6984934 0.7042240
0.9998533 0.9840389 0.9822776
0.0000000 0.1417154 0.8299338
0.0000000 0.1399811 0.8407969
0.0000000 0.1329577 0.8871242
0.0301816 0.1123431 1.0000000
0.3061385 0.0968979 1.0000000
1.0000000 0.1180531 0.7498920
1.0000000 0.2949014 0.4596122
1.0000000 0.7075154 0.7122693
0.9998474 0.9841068 0.9823443
0.0000000 0.3101153 0.7790889
0.0000000 0.3098331 0.7837096
0.0000000 0.3090773 0.8031794
0.0000210 0.3042902 0.9016722
0.2451064 0.2987948 0.9222609
1.0000000 0.2727081 0.7812614
1.0000000 0.4044795 0.5283242
1.0000000 0.7452579 0.7461982
0.9998180 0.9844118 0.9826455
0.0000000 0.7546349 0.7050174
0.0000000 0.7550694 0.7054720
0.0000000 0.7567881 0.7072746
0.0000000 0.7640829 0.7150075
0.0521335 0.7824414 0.7379879
0.6778484 0.6778481 0.6778484
1.0000000 0.7216861 0.7299389
1.0000000 0.8521234 0.8442863
0.9997022 0.9856741 0.9838943
0.3765647 1.0000000 0.6195188
0.3771820 1.0000000 0.6196968
0.3796424 1.0000000 0.6204040
0.3904853 1.0000000 0.6235185
0.4372971 1.0000000 0.6368669
0.5990070 1.0000000 0.6767306
0.9452541 0.9451942 0.6874141
1.0000000 0.9380972 0.9167365
0.9995412 0.9888924 0.9869202
0.8757395 1.0000000 0.8882483
0.8757749 1.0000000 0.8882652
0.8759233 1.0000000 0.8883433
0.8765801 1.0000000 0.8886947
0.8795189 1.0000000 0.8902571
0.8916353 1.0000000 0.8966233
0.9196238 1.0000000 0.9036201
0.9985244 1.0000000 0.8778118
0.9996659 0.9958075 0.9937937
0.9974309 0.9999170 0.9973036
0.9974294 0.9999186 0.9973043
0.9974330 0.9999176 0.9973060
0.9974397 0.9999176 0.9973112
0.9974733 0.9999170 0.9973396
0.9976178 0.9999176 0.9974693
0.9982404 0.9999216 0.9980496
1.0000000 1.0000000 1.0000000
1.0000000 1.0000000 1.0000000
0.1939394 0.3285796 1.0000000
0.1948225 0.3285459 1.0000000
0.1983228 0.3284010 1.0000000
0.2127331 0.3267432 1.0000000
0.2773817 0.3200705 1.0000000
0.5741879 0.3438743 1.0000000
1.0000000 0.4285153 0.8446490
1.0000000 0.7676085 0.8250585
0.9997700 0.9851627 0.9851925
0.1943394 0.3295793 1.0000000
0.1952214 0.3295465 1.0000000
0.1987266 0.3294086 1.0000000
0.2131915 0.3278212 1.0000000
0.2776713 0.3210571 1.0000000
0.5743421 0.3449611 1.0000000
1.0000000 0.4295674 0.8449612
1.0000000 0.7679867 0.8253214
0.9997698 0.9851649 0.9851941
0.1953193 0.3329844 1.0000000
0.1964459 0.3331820 1.0000000
0.2003528 0.3334255 1.0000000
0.2150622 0.3321383 1.0000000
0.2788488 0.3249978 1.0000000
0.5749728 0.3492997 1.0000000
1.0000000 0.4337633 0.8462060
1.0000000 0.7694884 0.8263659
0.9997678 0.9851803 0.9852076
0.1995650 0.3478051 1.0000000
0.2006917 0.3480107 1.0000000
0.2052207 0.3488636 1.0000000
0.2233221 0.3509725 1.0000000
0.2858792 0.3440349 1.0000000
0.5780472 0.3685898 1.0000000
1.0000000 0.4523356 0.8516794
1.0000000 0.7760216 0.8309135
0.9997630 0.9852421 0.9852630
0.2204549 0.4123834 1.0000000
0.2215867 0.4126185 1.0000000
0.2261159 0.4135807 1.0000000
0.2462787 0.4180620 1.0000000
0.3276297 0.4329419 1.0000000
0.5960626 0.4541540 1.0000000
1.0000000 0.5325590 0.8747255
1.0000000 0.8027236 0.8495488
0.9997399 0.9855203 0.9855101
0.3148598 0.6371577 1.0000000
0.3158908 0.6373630 1.0000000
0.3200094 0.6381970 1.0000000
0.3382070 0.6419531 1.0000000
0.4180599 0.6597259 1.0000000
0.6699271 0.7112249 1.0000000
1.0000000 0.7391822 0.9304830
1.0000000 0.8772231 0.9019349
0.9996448 0.9866794 0.9865395
0.3758031 1.0000000 0.9637507
0.3761763 1.0000000 0.9637698
0.3776655 1.0000000 0.9638468
0.3842356 1.0000000 0.9641794
0.4128773 1.0000000 0.9655498
0.5253983 0.9976800 0.9667082
0.9140029 0.9140024 0.9140029
1.0000000 0.9467362 0.9477948
0.9994160 0.9904042 0.9898748
0.8816457 1.0000000 0.9252489
0.8816752 1.0000000 0.9252591
0.8817948 1.0000000 0.9252996
0.8823258 1.0000000 0.9254791
0.8847095 1.0000000 0.9262815
0.8946532 1.0000000 0.9295515
0.9251882 1.0000000 0.9372686
0.9918710 0.9925637 0.9380220
0.9995778 0.9963880 0.9953092
0.9977384 0.9999336 0.9978673
0.9977366 0.9999336 0.9978663
0.9977406 0.9999328 0.9978679
0.9977501 0.9999325 0.9978741
0.9977804 0.9999328 0.9978990
0.9979247 0.9999341 0.9980181
0.9985429 0.9999403 0.9985456
1.0000000 1.0000000 1.0000000
1.0000000 1.0000000 1.0000000
0.6077061 0.6983923 1.0000000
0.6080812 0.6985960 1.0000000
0.6095865 0.6994137 1.0000000
0.6161801 0.7029938 1.0000000
0.6361991 0.7116011 1.0000000
0.6935502 0.7274275 1.0000000
0.8707410 0.7908248 1.0000000
1.0000000 0.8974054 0.9673210
0.9996019 0.9887366 0.9909700
0.6078965 0.6986118 1.0000000
0.6082749 0.6988168 1.0000000
0.6097782 0.6996332 1.0000000
0.6163679 0.7032121 1.0000000
0.6365063 0.7119184 1.0000000
0.6937881 0.7277123 1.0000000
0.8708183 0.7910278 1.0000000
1.0000000 0.8974727 0.9673410
0.9996025 0.9887382 0.9909716
0.6086646 0.6994886 1.0000000
0.6090416 0.6996931 1.0000000
0.6105421 0.7005081 1.0000000
0.6171297 0.7040830 1.0000000
0.6377290 0.7131775 1.0000000
0.6947421 0.7288503 1.0000000
0.8711324 0.7918374 1.0000000
1.0000000 0.8977423 0.9674238
0.9996019 0.9887478 0.9909787
0.6120998 0.7033877 1.0000000
0.6124684 0.7035848 1.0000000
0.6139368 0.7043729 1.0000000
0.6204848 0.7079167 1.0000000
0.6428846 0.7185271 1.0000000
0.6991323 0.7340086 1.0000000
0.8725053 0.7953802 1.0000000
1.0000000 0.8989220 0.9677882
0.9995986 0.9887893 0.9910083
0.6272631 0.7203920 1.0000000
0.6276169 0.7205775 1.0000000
0.6290166 0.7213170 1.0000000
0.6352540 0.7246233 1.0000000
0.6623871 0.7391484 1.0000000
0.7183230 0.7562205 1.0000000
0.8783405 0.8103493 1.0000000
1.0000000 0.9039837 0.9693528
0.9995895 0.9889727 0.9911392
0.6857924 0.7833868 1.0000000
0.6860711 0.7835193 1.0000000
0.6871834 0.7840502 1.0000000
0.6921340 0.7864300 1.0000000
0.7134585 0.7967165 1.0000000
0.7838268 0.8294054 1.0000000
0.8978599 0.8596397 1.0000000
1.0000000 0.9218041 0.9749139
0.9995493 0.9897514 0.9916975
0.8095060 0.9082208 1.0000000
0.8096147 0.9082500 1.0000000
0.8100485 0.9083711 1.0000000
0.8119708 0.9089022 1.0000000
0.8204147 0.9112437 1.0000000
0.8528929 0.9202909 1.0000000
0.9250699 0.9360564 1.0000000
1.0000000 0.9539579 0.9851755
0.9994557 0.9924217 0.9936340
0.8855035 1.0000000 0.9927243
0.8855206 1.0000000 0.9927254
0.8855846 1.0000000 0.9927294
0.8858663 1.0000000 0.9927499
0.8871338 1.0000000 0.9928400
0.8925774 1.0000000 0.9932235
0.9122431 1.0000000 0.9941270
0.9863710 0.9863707 0.9863701
0.9994960 0.9972903 0.9973198
0.9989909 0.9999724 0.9993314
0.9989890 0.9999726 0.9993311
0.9989904 0.9999731 0.9993322
0.9989975 0.9999728 0.9993362
0.9990237 0.9999734 0.9993534
0.9991609 0.9999748 0.9994369
0.9997209 0.9999883 0.9998039
1.0000000 1.0000000 1.0000000
1.0000000 1.0000000 1.0000000
0.9504355 0.9637372 1.0000000
0.9504437 0.9637420 1.0000000
0.9504872 0.9637610 1.0000000
0.9506654 0.9638439 1.0000000
0.9514818 0.9642195 1.0000000
0.9549686 0.9658394 1.0000000
0.9639485 0.9689047 1.0000000
0.9864698 0.9780210 1.0000000
0.9996809 0.9966877 0.9984853
0.9504411 0.9637432 1.0000000
0.9504493 0.9637494 1.0000000
0.9504914 0.9637669 1.0000000
0.9506720 0.9638504 1.0000000
0.9514877 0.9642248 1.0000000
0.9549718 0.9658448 1.0000000
0.9639545 0.9689116 1.0000000
0.9864714 0.9780251 1.0000000
0.9996816 0.9966880 0.9984860
0.9504648 0.9637690 1.0000000
0.9504751 0.9637732 1.0000000
0.9505157 0.9637921 1.0000000
0.9506968 0.9638751 1.0000000
0.9515101 0.9642503 1.0000000
0.9549938 0.9658679 1.0000000
0.9639752 0.9689363 1.0000000
0.9864759 0.9780386 1.0000000
0.9996816 0.9966893 0.9984863
0.9505722 0.9638804 1.0000000
0.9505830 0.9638860 1.0000000
0.9506254 0.9639035 1.0000000
0.9508064 0.9639867 1.0000000
0.9516154 0.9643588 1.0000000
0.9550853 0.9659691 1.0000000
0.9640673 0.9690461 1.0000000
0.9864939 0.9781038 1.0000000
0.9996819 0.9966996 0.9984912
0.9510667 0.9643833 1.0000000
0.9510770 0.9643889 1.0000000
0.9511173 0.9644070 1.0000000
0.9512954 0.9644876 1.0000000
0.9520928 0.9648527 1.0000000
0.9555018 0.9664231 1.0000000
0.9644809 0.9695407 1.0000000
0.9865789 0.9783924 1.0000000
0.9996809 0.9967473 0.9985116
0.9531959 0.9665480 1.0000000
0.9532053 0.9665518 1.0000000
0.9532447 0.9665679 1.0000000
0.9534084 0.9666414 1.0000000
0.9541412 0.9669690 1.0000000
0.9572991 0.9683779 1.0000000
0.9662455 0.9716401 1.0000000
0.9869478 0.9796395 1.0000000
0.9996909 0.9969516 0.9986021
0.9609712 0.9742631 1.0000000
0.9609760 0.9742659 1.0000000
0.9610031 0.9742759 1.0000000
0.9611233 0.9743226 1.0000000
0.9616564 0.9745288 1.0000000
0.9639686 0.9754319 1.0000000
0.9723232 0.9787453 1.0000000
0.9883791 0.9841275 0.9999756
0.9997342 0.9977726 0.9989652
0.9785670 0.9900297 1.0000000
0.9785688 0.9900310 1.0000000
0.9785798 0.9900329 1.0000000
0.9786211 0.9900428 1.0000000
0.9788191 0.9900873 1.0000000
0.9796864 0.9902847 1.0000000
0.9831563 0.9911090 1.0000000
0.9921374 0.9933274 0.9996389
1.0000000 1.0000000 1.0000000
1.0000000 1.0000000 1.0000000
1.0000000 1.0000000 1.0000000
1.0000000 1.0000000 1.0000000
1.0000000 1.0000000 1.0000000
1.0000000 1.0000000 1.0000000
1.0000000 1.0000000 1.0000000
1.0000000 1.0000000 1.0000000
1.0000000 1.0000000 1.0000000
1.0000000 1.0000000 1.0000000
