src/pipe/core/color/luts/aces2_sdr_rec709.cube
# aces2_sdr_rec709.cube: ACEScct-domain 3D LUT -> display-linear Rec.709
LUT_3D_SIZE 65
0.0000000 0.0000000 0.0000000
0.0000000 0.0000000 0.0000000
0.0000000 0.0000000 0.0000000
0.0000000 0.0000000 0.0000000
0.0000000 0.0000000 0.0000000
0.0000002 0.0000000 0.0000000
0.0000054 0.0000000 0.0000000
0.0000196 0.0000000 0.0000001
0.0000442 0.0000000 0.0000002
0.0000804 0.0000000 0.0000004
0.0001290 0.0000000 0.0000007
0.0001985 0.0000000 0.0000011
0.0003049 0.0000000 0.0000016
0.0004676 0.0000000 0.0000025
0.0007156 0.0000000 0.0000039
0.0010924 0.0000000 0.0000059
0.0016622 0.0000000 0.0000090
0.0025194 0.0000000 0.0000138
0.0037998 0.0000000 0.0000209
0.0057001 0.0000000 0.0000315
0.0084931 0.0000000 0.0000473
0.0125538 0.0000000 0.0000706
0.0183827 0.0000000 0.0001048
0.0266278 0.0000000 0.0001542
0.0380981 0.0000000 0.0002247
0.0537620 0.0000000 0.0003231
0.0747270 0.0000000 0.0004569
0.1021935 0.0000000 0.0006329
0.1374072 0.0000000 0.0008558
0.1815798 0.0000000 0.0011261
0.2358440 0.0000000 0.0014391
0.3012033 0.0000000 0.0017843
0.3784540 0.0000000 0.0021458
0.4682089 0.0000000 0.0025030
0.5698914 0.0000000 0.0028168
0.6814708 0.0000000 0.0030305
0.8059533 0.0000000 0.0031809
0.9414951 0.0000000 0.0033894
1.0000000 0.0038148 0.0082825
1.0000000 0.0267602 0.0199271
1.0000000 0.0502596 0.0333349
1.0000000 0.0732230 0.0476459
1.0000000 0.0956059 0.0625678
1.0000000 0.1175884 0.0780254
1.0000000 0.1393822 0.0940427
1.0000000 0.1613595 0.1108305
1.0000000 0.1840111 0.1287479
1.0000000 0.2079522 0.1483167
1.0000000 0.2338870 0.1702079
1.0000000 0.2626425 0.1952706
1.0000000 0.2951633 0.2245507
1.0000000 0.3325016 0.2593050
1.0000000 0.3758458 0.3010419
1.0000000 0.4264632 0.3514447
1.0000000 0.4854606 0.4122378
1.0000000 0.5534676 0.4846452
1.0000000 0.6296722 0.5683533
1.0000000 0.7099367 0.6590214
1.0000000 0.7865888 0.7475559
1.0000000 0.8508142 0.8229139
1.0000000 0.8988425 0.8798046
1.0000000 0.9323989 0.9197308
1.0000000 0.9553365 0.9470582
1.0000000 0.9709798 0.9656854
1.0000000 0.9817700 0.9785144
0.0000000 0.0000000 0.0000000
0.0000000 0.0000000 0.0000000
0.0000000 0.0000000 0.0000000
0.0000000 0.0000000 0.0000000
0.0000000 0.0000000 0.0000000
0.0000002 0.0000000 0.0000000
0.0000054 0.0000000 0.0000000
0.0000196 0.0000000 0.0000001
0.0000442 0.0000000 0.0000002
0.0000804 0.0000000 0.0000004
0.0001290 0.0000000 0.0000007
0.0001985 0.0000000 0.0000011
0.0003049 0.0000000 0.0000016
0.0004676 0.0000000 0.0000025
0.0007156 0.0000000 0.0000039
0.0010924 0.0000000 0.0000059
0.0016622 0.0000000 0.0000090
0.0025194 0.0000000 0.0000138
0.0037998 0.0000000 0.0000209
0.0057001 0.0000000 0.0000315
0.0084931 0.0000000 0.0000473
0.0125538 0.0000000 0.0000706
0.0183827 0.0000000 0.0001048
0.0266278 0.0000000 0.0001542
0.0380981 0.0000000 0.0002247
0.0537620 0.0000000 0.0003231
0.0747270 0.0000000 0.0004569
0.1021935 0.0000000 0.0006329
0.1374072 0.0000000 0.0008558
0.1815798 0.0000000 0.0011261
0.2358440 0.0000000 0.0014391
0.3012033 0.0000000 0.0017843
0.3784540 0.0000000 0.0021458
0.4682089 0.0000000 0.0025030
0.5698914 0.0000000 0.0028168
0.6814708 0.0000000 0.0030305
0.8059533 0.0000000 0.0031809
0.9414951 0.0000000 0.0033894
1.0000000 0.0038148 0.0082825
1.0000000 0.0267602 0.0199271
1.0000000 0.0502596 0.0333349
1.0000000 0.0732230 0.0476459
1.0000000 0.0956059 0.0625678
1.0000000 0.1175884 0.0780254
1.0000000 0.1393822 0.0940427
1.0000000 0.1613595 0.1108305
1.0000000 0.1840111 0.1287479
1.0000000 0.2079522 0.1483167
1.0000000 0.2338870 0.1702079
1.0000000 0.2626425 0.1952706
1.0000000 0.2951633 0.2245507
1.0000000 0.3325016 0.2593050
1.0000000 0.3758458 0.3010419
1.0000000 0.4264632 0.3514447
1.0000000 0.4854606 0.4122378
1.0000000 0.5534676 0.4846452
1.0000000 0.6296722 0.5683533
1.0000000 0.7099367 0.6590214
1.0000000 0.7865888 0.7475559
1.0000000 0.8508142 0.8229139
1.0000000 0.8988425 0.8798046
1.0000000 0.9323989 0.9197308
1.0000000 0.9553365 0.9470582
1.0000000 0.9709798 0.9656854
1.0000000 0.9817700 0.9785144
0.0000000 0.0000000 0.0000000
0.0000000 0.0000000 0.0000000
0.0000000 0.0000000 0.0000000
0.0000000 0.0000000 0.0000000
0.0000000 0.0000000 0.0000000
0.0000002 0.0000000 0.0000000
0.0000054 0.0000000 0.0000000
0.0000196 0.0000000 0.0000001
0.0000442 0.0000000 0.0000002
0.0000804 0.0000000 0.0000004
0.0001290 0.0000000 0.0000007
0.0001985 0.0000000 0.0000011
0.0003049 0.0000000 0.0000016
0.0004676 0.0000000 0.0000025
0.0007156 0.0000000 0.0000039
0.0010924 0.0000000 0.0000059
0.0016622 0.0000000 0.0000090
0.0025194 0.0000000 0.0000138
0.0037998 0.0000000 0.0000209
0.0057001 0.0000000 0.0000315
0.0084931 0.0000000 0.0000473
0.0125538 0.0000000 0.0000706
0.0183827 0.0000000 0.0001048
0.0266278 0.0000000 0.0001542
0.0380981 0.0000000 0.0002247
0.0537620 0.0000000 0.0003231
0.0747270 0.0000000 0.0004569
0.1021935 0.0000000 0.0006329
0.1374072 0.0000000 0.0008558
0.1815798 0.0000000 0.0011261
0.2358440 0.0000000 0.0014391
0.3012033 0.0000000 0.0017843
0.3784540 0.0000000 0.0021458
0.4682089 0.0000000 0.0025030
0.5698914 0.0000000 0.0028168
0.6814708 0.0000000 0.0030305
0.8059533 0.0000000 0.0031809
0.9414951 0.0000000 0.0033894
1.0000000 0.0038148 0.0082825
1.0000000 0.0267602 0.0199271
1.0000000 0.0502596 0.0333349
1.0000000 0.0732230 0.0476459
1.0000000 0.0956059 0.0625678
1.0000000 0.1175884 0.0780254
1.0000000 0.1393822 0.0940427
1.0000000 0.1613595 0.1108305
1.0000000 0.1840111 0.1287479
1.0000000 0.2079522 0.1483167
1.0000000 0.2338870 0.1702079
1.0000000 0.2626425 0.1952706
1.0000000 0.2951633 0.2245507
1.0000000 0.3325016 0.2593050
1.0000000 0.3758458 0.3010419
1.0000000 0.4264632 0.3514447
1.0000000 0.4854606 0.4122378
1.0000000 0.5534676 0.4846452
1.0000000 0.6296722 0.5683533
1.0000000 0.7099367 0.6590214
1.0000000 0.7865888 0.7475559
1.0000000 0.8508142 0.8229139
1.0000000 0.8988425 0.8798046
1.0000000 0.9323989 0.9197308
1.0000000 0.9553365 0.9470582
1.0000000 0.9709798 0.9656854
1.0000000 0.9817700 0.9785144
0.0000000 0.0000000 0.0000000
0.0000000 0.0000000 0.0000000
0.0000000 0.0000000 0.0000000
0.0000000 0.0000000 0.0000000
0.0000000 0.0000000 0.0000000
0.0000002 0.0000000 0.0000000
0.0000054 0.0000000 0.0000000
0.0000196 0.0000000 0.0000001
0.0000442 0.0000000 0.0000002
0.0000804 0.0000000 0.0000004
0.0001290 0.0000000 0.0000007
0.0001985 0.0000000 0.0000011
0.0003049 0.0000000 0.0000016
0.0004676 0.0000000 0.0000025
0.0007156 0.0000000 0.0000039
0.0010924 0.0000000 0.0000059
0.0016622 0.0000000 0.0000090
0.0025194 0.0000000 0.0000138
0.0037998 0.0000000 0.0000209
0.0057001 0.0000000 0.0000315
0.0084931 0.0000000 0.0000473
0.0125538 0.0000000 0.0000706
0.0183827 0.0000000 0.0001048
0.0266278 0.0000000 0.0001542
0.0380981 0.0000000 0.0002247
0.0537620 0.0000000 0.0003231
0.0747270 0.0000000 0.0004569
0.1021935 0.0000000 0.0006329
0.1374072 0.0000000 0.0008558
0.1815798 0.0000000 0.0011261
0.2358440 0.0000000 0.0014391
0.3012033 0.0000000 0.0017843
0.3784540 0.0000000 0.0021458
0.4682089 0.0000000 0.0025030
0.5698914 0.0000000 0.0028168
0.6814708 0.0000000 0.0030305
0.8059533 0.0000000 0.0031809
0.9414951 0.0000000 0.0033894
1.0000000 0.0038148 0.0082825
1.0000000 0.0267602 0.0199271
1.0000000 0.0502596 0.0333349
1.0000000 0.0732230 0.0476459
1.0000000 0.0956059 0.0625678
1.0000000 0.1175884 0.0780254
1.0000000 0.1393822 0.0940427
1.0000000 0.1613595 0.1108305
1.0000000 0.1840111 0.1287479
1.0000000 0.2079522 0.1483167
1.0000000 0.2338870 0.1702079
1.0000000 0.2626425 0.1952706
1.0000000 0.2951633 0.2245507
1.0000000 0.3325016 0.2593050
1.0000000 0.3758458 0.3010419
1.0000000 0.4264632 0.3514447
1.0000000 0.4854606 0.4122378
1.0000000 0.5534676 0.4846452
1.0000000 0.6296722 0.5683533
1.0000000 0.7099367 0.6590214
1.0000000 0.7865888 0.7475559
1.0000000 0.8508142 0.8229139
1.0000000 0.8988425 0.8798046
1.0000000 0.9323989 0.9197308
1.0000000 0.9553365 0.9470582
1.0000000 0.9709798 0.9656854
1.0000000 0.9817700 0.9785144
0.0000000 0.0000000 0.0000000
0.0000000 0.0000000 0.0000000
0.0000000 0.0000000 0.0000000
0.0000000 0.0000000 0.0000000
0.0000000 0.0000000 0.0000000
0.0000002 0.0000000 0.0000000
0.0000054 0.0000000 0.0000000
0.0000196 0.0000000 0.0000001
0.0000442 0.0000000 0.0000002
0.0000804 0.0000000 0.0000004
0.0001290 0.0000000 0.0000007
0.0001985 0.0000000 0.0000011
0.0003049 0.0000000 0.0000016
0.0004676 0.0000000 0.0000025
0.0007156 0.0000000 0.0000039
0.0010924 0.0000000 0.0000059
0.0016622 0.0000000 0.0000090
0.0025194 0.0000000 0.0000138
0.0037998 0.0000000 0.0000209
0.0057001 0.0000000 0.0000315
0.0084931 0.0000000 0.0000473
0.0125538 0.0000000 0.0000706
0.0183827 0.0000000 0.0001048
0.0266278 0.0000000 0.0001542
0.0380981 0.0000000 0.0002247
0.0537620 0.0000000 0.0003231
0.0747270 0.0000000 0.0004569
0.1021935 0.0000000 0.0006329
0.1374072 0.0000000 0.0008558
0.1815798 0.0000000 0.0011261
0.2358440 0.0000000 0.0014391
0.3012033 0.0000000 0.0017843
0.3784540 0.0000000 0.0021458
0.4682089 0.0000000 0.0025030
0.5698914 0.0000000 0.0028168
0.6814708 0.0000000 0.0030305
0.8059533 0.0000000 0.0031809
0.9414951 0.0000000 0.0033894
1.0000000 0.0038148 0.0082825
1.0000000 0.0267602 0.0199271
1.0000000 0.0502596 0.0333349
1.0000000 0.0732230 0.0476459
1.0000000 0.0956059 0.0625678
1.0000000 0.1175884 0.0780254
1.0000000 0.1393822 0.0940427
1.0000000 0.1613595 0.1108305
1.0000000 0.1840111 0.1287479
1.0000000 0.2079522 0.1483167
1.0000000 0.2338870 0.1702079
1.0000000 0.2626425 0.1952706
1.0000000 0.2951633 0.2245507
1.0000000 0.3325016 0.2593050
1.0000000 0.3758458 0.3010419
1.0000000 0.4264632 0.3514447
1.0000000 0.4854606 0.4122378
1.0000000 0.5534676 0.4846452
1.0000000 0.6296722 0.5683533
1.0000000 0.7099367 0.6590214
1.0000000 0.7865888 0.7475559
1.0000000 0.8508142 0.8229139
1.0000000 0.8988425 0.8798046
1.0000000 0.9323989 0.9197308
1.0000000 0.9553365 0.9470582
1.0000000 0.9709798 0.9656854
1.0000000 0.9817700 0.9785144
0.0000000 0.0000003 0.0000000
0.0000000 0.0000003 0.0000000
0.0000000 0.0000003 0.0000000
0.0000000 0.0000003 0.0000000
0.0000000 0.0000003 0.0000000
0.0000007 0.0000007 0.0000000
0.0000087 0.0000017 0.0000000
0.0000268 0.0000026 0.0000000
0.0000564 0.0000035 0.0000000
0.0000986 0.0000042 0.0000000
0.0001540 0.0000047 0.0000000
0.0002321 0.0000050 0.0000000
0.0003504 0.0000049 0.0000000
0.0005294 0.0000042 0.0000000
0.0008002 0.0000022 0.0000000
0.0012082 0.0000000 0.0000000
0.0018112 0.0000000 0.0000000
0.0027016 0.0000000 0.0000000
0.0040212 0.0000000 0.0000035
0.0059676 0.0000000 0.0000101
0.0088139 0.0000000 0.0000212
0.0129356 0.0000000 0.0000391
0.0188330 0.0000000 0.0000671
0.0271484 0.0000000 0.0001093
0.0386861 0.0000000 0.0001715
0.0544131 0.0000000 0.0002609
0.0754328 0.0000000 0.0003853
0.1029433 0.0000000 0.0005518
0.1381884 0.0000000 0.0007654
0.1823797 0.0000000 0.0010272
0.2366521 0.0000000 0.0013330
0.3020115 0.0000000 0.0016724
0.3792570 0.0000000 0.0020298
0.4690037 0.0000000 0.0023849
0.5706524 0.0000000 0.0026983
0.6822426 0.0000000 0.0029143
0.8067363 0.0000000 0.0030691
0.9422168 0.0000000 0.0032881
1.0000000 0.0039715 0.0082345
1.0000000 0.0269225 0.0198961
1.0000000 0.0504053 0.0333118
1.0000000 0.0733535 0.0476303
1.0000000 0.0957232 0.0625596
1.0000000 0.1176949 0.0780247
1.0000000 0.1394776 0.0940475
1.0000000 0.1614452 0.1108398
1.0000000 0.1840876 0.1287605
1.0000000 0.2080208 0.1483324
1.0000000 0.2339492 0.1702261
1.0000000 0.2626987 0.1952910
1.0000000 0.2952132 0.2245723
1.0000000 0.3325478 0.2593289
1.0000000 0.3758888 0.3010669
1.0000000 0.4265017 0.3514703
1.0000000 0.4854956 0.4122639
1.0000000 0.5535030 0.4846753
1.0000000 0.6297038 0.5683825
1.0000000 0.7099615 0.6590466
1.0000000 0.7866056 0.7475733
1.0000000 0.8508207 0.8229204
1.0000000 0.8988471 0.8798091
1.0000000 0.9324030 0.9197354
1.0000000 0.9553373 0.9470585
1.0000000 0.9709824 0.9656884
1.0000000 0.9817700 0.9785144
0.0000000 0.0000070 0.0000010
0.0000000 0.0000070 0.0000010
0.0000000 0.0000070 0.0000010
0.0000000 0.0000070 0.0000010
0.0000000 0.0000070 0.0000010
0.0000005 0.0000099 0.0000000
0.0000158 0.0000156 0.0000000
0.0000429 0.0000213 0.0000000
0.0000826 0.0000271 0.0000000
0.0001355 0.0000330 0.0000000
0.0002022 0.0000388 0.0000000
0.0002934 0.0000451 0.0000000
0.0004279 0.0000525 0.0000000
0.0006270 0.0000611 0.0000000
0.0009220 0.0000707 0.0000000
0.0013597 0.0000811 0.0000000
0.0020080 0.0000916 0.0000000
0.0029666 0.0001010 0.0000000
0.0043767 0.0001076 0.0000000
0.0064423 0.0001084 0.0000000
0.0094461 0.0000987 0.0000000
0.0137718 0.0000724 0.0000000
0.0199333 0.0000214 0.0000000
0.0285671 0.0000000 0.0000000
0.0402680 0.0000000 0.0000000
0.0561576 0.0000000 0.0000572
0.0773339 0.0000000 0.0001533
0.1049915 0.0000000 0.0002921
0.1403706 0.0000000 0.0004799
0.1846732 0.0000000 0.0007191
0.2390245 0.0000000 0.0010074
0.3044181 0.0000000 0.0013355
0.3816516 0.0000000 0.0016832
0.4713762 0.0000000 0.0020320
0.5729260 0.0000000 0.0023439
0.6845530 0.0000000 0.0025670
0.8090810 0.0000000 0.0027327
0.9443564 0.0000000 0.0029870
1.0000000 0.0044439 0.0080923
1.0000000 0.0274086 0.0198036
1.0000000 0.0508421 0.0332423
1.0000000 0.0737456 0.0475844
1.0000000 0.0960818 0.0625404
1.0000000 0.1180140 0.0780227
1.0000000 0.1397632 0.0940614
1.0000000 0.1617003 0.1108664
1.0000000 0.1843166 0.1287984
1.0000000 0.2082257 0.1483787
1.0000000 0.2341339 0.1702799
1.0000000 0.2628652 0.1953508
1.0000000 0.2953658 0.2246386
1.0000000 0.3326867 0.2593994
1.0000000 0.3760161 0.3011421
1.0000000 0.4266190 0.3515494
1.0000000 0.4856017 0.4123434
1.0000000 0.5536029 0.4847600
1.0000000 0.6297885 0.5684597
1.0000000 0.7100357 0.6591197
1.0000000 0.7866555 0.7476245
1.0000000 0.8508525 0.8229545
1.0000000 0.8988630 0.8798251
1.0000000 0.9324118 0.9197435
1.0000000 0.9553417 0.9470637
1.0000000 0.9709834 0.9656895
1.0000000 0.9817716 0.9785160
0.0000000 0.0000251 0.0000034
0.0000000 0.0000251 0.0000034
0.0000000 0.0000251 0.0000034
0.0000000 0.0000251 0.0000034
0.0000000 0.0000251 0.0000034
0.0000000 0.0000314 0.0000011
0.0000203 0.0000440 0.0000000
0.0000564 0.0000554 0.0000000
0.0001058 0.0000669 0.0000000
0.0001691 0.0000784 0.0000000
0.0002467 0.0000900 0.0000000
0.0003504 0.0001028 0.0000000
0.0005004 0.0001182 0.0000000
0.0007187 0.0001365 0.0000000
0.0010371 0.0001580 0.0000000
0.0015030 0.0001829 0.0000000
0.0021849 0.0002111 0.0000000
0.0031817 0.0002422 0.0000000
0.0046376 0.0002747 0.0000000
0.0067534 0.0003064 0.0000000
0.0098099 0.0003337 0.0000000
0.0141889 0.0003510 0.0000000
0.0203982 0.0003508 0.0000000
0.0290997 0.0003206 0.0000000
0.0411102 0.0002474 0.0000000
0.0574262 0.0001140 0.0000000
0.0791566 0.0000000 0.0000000
0.1069224 0.0000000 0.0000207
0.1424069 0.0000000 0.0001785
0.1868111 0.0000000 0.0003901
0.2412700 0.0000000 0.0006539
0.3067804 0.0000000 0.0009620
0.3841263 0.0000000 0.0013003
0.4739145 0.0000000 0.0016493
0.5754019 0.0000000 0.0019674
0.6870424 0.0000000 0.0022057
0.8115320 0.0000000 0.0023895
0.9465095 0.0000000 0.0026855
1.0000000 0.0049208 0.0079517
1.0000000 0.0278926 0.0197097
1.0000000 0.0512755 0.0331711
1.0000000 0.0741347 0.0475365
1.0000000 0.0964376 0.0625188
1.0000000 0.1183338 0.0780209
1.0000000 0.1400490 0.0940753
1.0000000 0.1619555 0.1108933
1.0000000 0.1845447 0.1288357
1.0000000 0.2084309 0.1484255
1.0000000 0.2343177 0.1703334
1.0000000 0.2630326 0.1954114
1.0000000 0.2955184 0.2247047
1.0000000 0.3328259 0.2594702
1.0000000 0.3761443 0.3012179
1.0000000 0.4267357 0.3516278
1.0000000 0.4857078 0.4124228
1.0000000 0.5537040 0.4848452
1.0000000 0.6298739 0.5685383
1.0000000 0.7101119 0.6591962
1.0000000 0.7867054 0.7476751
1.0000000 0.8508813 0.8229839
1.0000000 0.8988782 0.8798416
1.0000000 0.9324192 0.9197510
1.0000000 0.9553468 0.9470678
1.0000000 0.9709848 0.9656907
1.0000000 0.9817718 0.9785159
0.0000000 0.0000566 0.0000078
0.0000000 0.0000566 0.0000078
0.0000000 0.0000566 0.0000078
0.0000000 0.0000566 0.0000078
0.0000000 0.0000566 0.0000078
0.0000000 0.0000661 0.0000045
0.0000215 0.0000885 0.0000000
0.0000665 0.0001060 0.0000000
0.0001258 0.0001236 0.0000000
0.0001993 0.0001412 0.0000000
0.0002875 0.0001588 0.0000000
0.0004033 0.0001784 0.0000000
0.0005684 0.0002020 0.0000000
0.0008052 0.0002303 0.0000000
0.0011462 0.0002640 0.0000000
0.0016393 0.0003036 0.0000000
0.0023537 0.0003496 0.0000000
0.0033885 0.0004020 0.0000000
0.0048873 0.0004604 0.0000000
0.0070510 0.0005229 0.0000000
0.0101576 0.0005870 0.0000000
0.0145892 0.0006464 0.0000000
0.0208488 0.0006944 0.0000000
0.0295893 0.0007200 0.0000000
0.0416253 0.0007095 0.0000000
0.0579471 0.0006427 0.0000000
0.0796854 0.0004957 0.0000000
0.1081028 0.0002423 0.0000000
0.1444450 0.0000000 0.0000000
0.1889478 0.0000000 0.0000608
0.2435189 0.0000000 0.0003003
0.3091472 0.0000000 0.0005887
0.3866206 0.0000000 0.0009126
0.4765373 0.0000000 0.0012531
0.5780922 0.0000000 0.0015684
0.6899250 0.0000000 0.0018129
0.8145654 0.0000000 0.0020071
0.9493431 0.0000000 0.0023439
1.0000000 0.0053462 0.0077896
1.0000000 0.0283565 0.0196063
1.0000000 0.0517039 0.0330970
1.0000000 0.0745243 0.0474887
1.0000000 0.0967931 0.0624970
1.0000000 0.1186525 0.0780183
1.0000000 0.1403345 0.0940889
1.0000000 0.1622102 0.1109201
1.0000000 0.1847728 0.1288732
1.0000000 0.2086352 0.1484712
1.0000000 0.2345026 0.1703870
1.0000000 0.2631994 0.1954717
1.0000000 0.2956705 0.2247706
1.0000000 0.3329652 0.2595413
1.0000000 0.3762711 0.3012922
1.0000000 0.4268527 0.3517058
1.0000000 0.4858139 0.4125030
1.0000000 0.5538084 0.4849341
1.0000000 0.6299599 0.5686169
1.0000000 0.7101843 0.6592680
1.0000000 0.7867557 0.7477267
1.0000000 0.8509113 0.8230148
1.0000000 0.8988966 0.8798613
1.0000000 0.9324254 0.9197573
1.0000000 0.9553505 0.9470714
1.0000000 0.9709870 0.9656931
1.0000000 0.9817724 0.9785166
0.0000000 0.0001027 0.0000141
0.0000000 0.0001027 0.0000141
0.0000000 0.0001027 0.0000141
0.0000000 0.0001027 0.0000141
0.0000000 0.0001027 0.0000141
0.0000000 0.0001157 0.0000098
0.0000188 0.0001501 0.0000000
0.0000731 0.0001741 0.0000000
0.0001420 0.0001980 0.0000000
0.0002258 0.0002219 0.0000000
0.0003245 0.0002458 0.0000000
0.0004523 0.0002724 0.0000000
0.0006320 0.0003044 0.0000000
0.0008868 0.0003428 0.0000000
0.0012497 0.0003886 0.0000000
0.0017692 0.0004430 0.0000000
0.0025148 0.0005068 0.0000000
0.0035861 0.0005806 0.0000000
0.0051268 0.0006644 0.0000000
0.0073363 0.0007573 0.0000000
0.0104935 0.0008566 0.0000000
0.0149740 0.0009579 0.0000000
0.0212797 0.0010543 0.0000000
0.0300581 0.0011345 0.0000000
0.0421218 0.0011835 0.0000000
0.0584501 0.0011815 0.0000000
0.0801787 0.0011014 0.0000000
0.1085379 0.0009210 0.0000000
0.1448980 0.0005857 0.0000000
0.1905404 0.0000714 0.0000000
0.2457721 0.0000000 0.0000000
0.3115197 0.0000000 0.0002158
0.3891230 0.0000000 0.0005251
0.4791720 0.0000000 0.0008570
0.5807995 0.0000000 0.0011695
0.6928240 0.0000000 0.0014199
0.8176139 0.0000000 0.0016244
0.9521625 0.0000000 0.0020042
1.0000000 0.0057772 0.0076293
1.0000000 0.0288211 0.0195030
1.0000000 0.0521330 0.0330229
1.0000000 0.0749138 0.0474407
1.0000000 0.0971485 0.0624751
1.0000000 0.1189712 0.0780160
1.0000000 0.1406197 0.0941025
1.0000000 0.1624656 0.1109468
1.0000000 0.1850006 0.1289104
1.0000000 0.2088402 0.1485176
1.0000000 0.2346866 0.1704406
1.0000000 0.2633660 0.1955314
1.0000000 0.2958219 0.2248358
1.0000000 0.3331031 0.2596113
1.0000000 0.3763976 0.3013666
1.0000000 0.4269694 0.3517839
1.0000000 0.4859203 0.4125833
1.0000000 0.5539078 0.4850180
1.0000000 0.6300465 0.5686964
1.0000000 0.7102595 0.6593427
1.0000000 0.7868056 0.7477790
1.0000000 0.8509397 0.8230447
1.0000000 0.8989097 0.8798735
1.0000000 0.9324348 0.9197677
1.0000000 0.9553547 0.9470761
1.0000000 0.9709899 0.9656960
1.0000000 0.9817754 0.9785187
0.0000000 0.0001643 0.0000226
0.0000000 0.0001643 0.0000226
0.0000000 0.0001643 0.0000226
0.0000000 0.0001643 0.0000226
0.0000000 0.0001643 0.0000226
0.0000000 0.0001809 0.0000171
0.0000119 0.0002296 0.0000000
0.0000756 0.0002602 0.0000000
0.0001543 0.0002906 0.0000000
0.0002482 0.0003210 0.0000000
0.0003574 0.0003513 0.0000000
0.0004970 0.0003849 0.0000000
0.0006912 0.0004254 0.0000000
0.0009635 0.0004739 0.0000000
0.0013478 0.0005320 0.0000000
0.0018928 0.0006011 0.0000000
0.0026689 0.0006825 0.0000000
0.0037754 0.0007774 0.0000000
0.0053565 0.0008864 0.0000000
0.0076107 0.0010091 0.0000000
0.0108153 0.0011435 0.0000000
0.0153448 0.0012853 0.0000000
0.0216965 0.0014281 0.0000000
0.0305158 0.0015603 0.0000000
0.0426031 0.0016685 0.0000000
0.0589367 0.0017302 0.0000000
0.0806488 0.0017173 0.0000000
0.1089818 0.0015977 0.0000000
0.1452410 0.0013421 0.0000000
0.1908260 0.0008732 0.0000000
0.2469653 0.0001691 0.0000000
0.3138987 0.0000000 0.0000000
0.3916347 0.0000000 0.0001379
0.4818195 0.0000000 0.0004608
0.5835240 0.0000000 0.0007705
0.6957410 0.0000000 0.0010265
0.8206782 0.0000000 0.0012411
0.9549647 0.0000000 0.0016666
1.0000000 0.0062140 0.0074709
1.0000000 0.0292863 0.0193994
1.0000000 0.0525622 0.0329487
1.0000000 0.0753040 0.0473929
1.0000000 0.0975035 0.0624526
1.0000000 0.1192901 0.0780132
1.0000000 0.1409047 0.0941157
1.0000000 0.1627203 0.1109732
1.0000000 0.1852288 0.1289478
1.0000000 0.2090451 0.1485639
1.0000000 0.2348712 0.1704943
1.0000000 0.2635330 0.1955913
1.0000000 0.2959741 0.2249016
1.0000000 0.3332428 0.2596830
1.0000000 0.3765254 0.3014420
1.0000000 0.4270865 0.3518622
1.0000000 0.4860265 0.4126624
1.0000000 0.5540082 0.4851029
1.0000000 0.6301330 0.5687753
1.0000000 0.7103324 0.6594148
1.0000000 0.7868571 0.7478318
1.0000000 0.8509709 0.8230771
1.0000000 0.8989251 0.8798897
1.0000000 0.9324423 0.9197749
1.0000000 0.9553589 0.9470806
1.0000000 0.9709911 0.9656981
1.0000000 0.9817754 0.9785187
0.0000000 0.0002519 0.0000346
0.0000000 0.0002519 0.0000346
0.0000000 0.0002519 0.0000346
0.0000000 0.0002519 0.0000346
0.0000000 0.0002519 0.0000346
0.0000000 0.0002725 0.0000279
0.0000000 0.0003398 0.0000000
0.0000734 0.0003778 0.0000000
0.0001631 0.0004157 0.0000000
0.0002682 0.0004533 0.0000000
0.0003889 0.0004908 0.0000000
0.0005416 0.0005324 0.0000000
0.0007517 0.0005823 0.0000000
0.0010433 0.0006421 0.0000000
0.0014507 0.0007138 0.0000000
0.0020236 0.0007991 0.0000000
0.0028325 0.0008999 0.0000000
0.0039772 0.0010179 0.0000000
0.0056019 0.0011544 0.0000000
0.0079048 0.0013095 0.0000000
0.0111605 0.0014821 0.0000000
0.0157423 0.0016683 0.0000000
0.0221441 0.0018612 0.0000000
0.0310038 0.0020509 0.0000000
0.0431239 0.0022206 0.0000000
0.0594639 0.0023513 0.0000000
0.0811542 0.0024124 0.0000000
0.1094442 0.0023663 0.0000000
0.1456530 0.0021713 0.0000000
0.1910880 0.0017909 0.0000000
0.2471451 0.0011272 0.0000000
0.3149361 0.0001610 0.0000000
0.3944364 0.0000000 0.0000000
0.4847823 0.0000000 0.0000197
0.5865815 0.0000000 0.0003259
0.6990104 0.0000000 0.0005881
0.8241120 0.0000000 0.0008138
0.9580672 0.0000000 0.0012931
1.0000000 0.0067066 0.0072966
1.0000000 0.0298053 0.0192840
1.0000000 0.0530409 0.0328658
1.0000000 0.0757390 0.0473396
1.0000000 0.0978990 0.0624276
1.0000000 0.1196446 0.0780098
1.0000000 0.1412224 0.0941305
1.0000000 0.1630041 0.1110026
1.0000000 0.1854826 0.1289889
1.0000000 0.2092726 0.1486151
1.0000000 0.2350761 0.1705536
1.0000000 0.2637192 0.1956584
1.0000000 0.2961423 0.2249740
1.0000000 0.3333969 0.2597609
1.0000000 0.3766677 0.3015255
1.0000000 0.4272164 0.3519490
1.0000000 0.4861444 0.4127506
1.0000000 0.5541225 0.4852003
1.0000000 0.6302298 0.5688640
1.0000000 0.7104135 0.6594961
1.0000000 0.7869111 0.7478863
1.0000000 0.8510011 0.8231085
1.0000000 0.8989441 0.8799098
1.0000000 0.9324515 0.9197847
1.0000000 0.9553608 0.9470828
1.0000000 0.9709938 0.9656997
1.0000000 0.9817758 0.9785195
0.0000000 0.0003852 0.0000529
0.0000000 0.0003852 0.0000529
0.0000000 0.0003852 0.0000529
0.0000000 0.0003852 0.0000529
0.0000000 0.0003852 0.0000529
0.0000000 0.0004109 0.0000446
0.0000000 0.0004937 0.0000077
0.0000633 0.0005512 0.0000000
0.0001664 0.0005979 0.0000000
0.0002851 0.0006444 0.0000000
0.0004195 0.0006907 0.0000000
0.0005877 0.0007418 0.0000000
0.0008170 0.0008032 0.0000000
0.0011315 0.0008766 0.0000000
0.0015665 0.0009643 0.0000000
0.0021720 0.0010689 0.0000000
0.0030194 0.0011927 0.0000000
