src/pipe/core/color/luts/opendrt_standard.cube
# opendrt_standard.cube: ACEScct-domain 3D LUT -> display-linear Rec.709
LUT_3D_SIZE 9
0.0000000 0.0000000 0.0000000
0.0005854 0.0000000 0.0000000
0.0070812 0.0000020 0.0000070
0.0651331 0.0000566 0.0001978
0.3164845 0.0007649 0.0017257
0.7747761 0.0207025 0.0095788
1.0000000 0.2774419 0.1176832
1.0000000 0.6736109 0.4887891
1.0000000 0.8870468 0.7806781
0.0000000 0.0002822 0.0000000
0.0006044 0.0005131 0.0000000
0.0074884 0.0008091 0.0000012
0.0674371 0.0004048 0.0001314
0.3210607 0.0012206 0.0016361
0.7769950 0.0226594 0.0095133
1.0000000 0.2790564 0.1178515
1.0000000 0.6738868 0.4888729
1.0000000 0.8870753 0.7806872
0.0000000 0.0036168 0.0000004
0.0000079 0.0043211 0.0000000
0.0073385 0.0062003 0.0000001
0.0713940 0.0042711 0.0000670
0.3284473 0.0026055 0.0014928
0.7806801 0.0262199 0.0094048
1.0000000 0.2817477 0.1181339
1.0000000 0.6743463 0.4890121
1.0000000 0.8871242 0.7807046
0.0000000 0.0404456 0.0000288
0.0000000 0.0425005 0.0000111
0.0000005 0.0474980 0.0000032
0.0677718 0.0587048 0.0000065
0.3610752 0.0303360 0.0010050
0.7968889 0.0467078 0.0089328
1.0000000 0.2937812 0.1194210
1.0000000 0.6763924 0.4896355
1.0000000 0.8873395 0.7807799
0.0000000 0.2342912 0.0002205
0.0000000 0.2380700 0.0001847
0.0000000 0.2449017 0.0001398
0.0000059 0.2809391 0.0000584
0.3470229 0.3342906 0.0004879
0.8593998 0.2029181 0.0072497
1.0000000 0.3493719 0.1259319
1.0000000 0.6856723 0.4924968
1.0000000 0.8883229 0.7811242
0.0000003 0.6398067 0.0024964
0.0000004 0.6419870 0.0024761
0.0000006 0.6456634 0.0024468
0.0000035 0.6626594 0.0023869
0.0127023 0.7439443 0.0043057
0.7657570 0.8236055 0.1074212
1.0000000 0.5973391 0.1706308
1.0000000 0.7268004 0.5059642
1.0000000 0.8927647 0.7827025
0.0713679 0.9583069 0.1685575
0.0726138 0.9586921 0.1689114
0.0747127 0.9593341 0.1695081
0.0844119 0.9621916 0.1722725
0.1345130 0.9750847 0.1871589
0.4071999 1.0000000 0.3003893
0.9613377 1.0000000 0.6066145
1.0000000 0.8819854 0.5743461
1.0000000 0.9121312 0.7900646
0.6064955 1.0000000 0.6316451
0.6067273 1.0000000 0.6317436
0.6071131 1.0000000 0.6319082
0.6088344 1.0000000 0.6326444
0.6167278 1.0000000 0.6360791
0.6533057 1.0000000 0.6531993
0.8097264 1.0000000 0.7479272
1.0000000 1.0000000 0.8808659
1.0000000 0.9801355 0.8262878
0.8863064 1.0000000 0.8920571
0.8863258 1.0000000 0.8920659
0.8863586 1.0000000 0.8920813
0.8865026 1.0000000 0.8921486
0.8871599 1.0000000 0.8924575
0.8901605 1.0000000 0.8938875
0.9037547 1.0000000 0.9008060
0.9559983 1.0000000 0.9346611
1.0000000 1.0000000 0.9685327
0.0000000 0.0000000 0.0003507
0.0016353 0.0000000 0.0008899
0.0104118 0.0000020 0.0012978
0.0727418 0.0000572 0.0016185
0.3261625 0.0008080 0.0030720
0.7788382 0.0213230 0.0110456
1.0000000 0.2784944 0.1197450
1.0000000 0.6738504 0.4893498
1.0000000 0.8870739 0.7807537
0.0000000 0.0005656 0.0007969
0.0010123 0.0010123 0.0010123
0.0105473 0.0004272 0.0007838
0.0748756 0.0003573 0.0011996
0.3306345 0.0012860 0.0029363
0.7810382 0.0233247 0.0109768
1.0000000 0.2801088 0.1199154
1.0000000 0.6741263 0.4894339
1.0000000 0.8871028 0.7807637
0.0000000 0.0044945 0.0017259
0.0000005 0.0058757 0.0012267
0.0085184 0.0074167 0.0005687
0.0781790 0.0038177 0.0006812
0.3381031 0.0027373 0.0027222
0.7846907 0.0269623 0.0108628
1.0000000 0.2828000 0.1202013
1.0000000 0.6745859 0.4895734
1.0000000 0.8871512 0.7807806
0.0000000 0.0428154 0.0016916
0.0000000 0.0452802 0.0009395
0.0000004 0.0507317 0.0002637
0.0695835 0.0606534 0.0000816
0.3690483 0.0313559 0.0019283
0.8007419 0.0478021 0.0103651
1.0000000 0.2948331 0.1215042
1.0000000 0.6766303 0.4901957
1.0000000 0.8873670 0.7808555
0.0000000 0.2384263 0.0006024
0.0000000 0.2423254 0.0005079
0.0000000 0.2493232 0.0003869
0.0000061 0.2854351 0.0001584
0.3476868 0.3355924 0.0010080
0.8623193 0.2049945 0.0085799
1.0000000 0.3504097 0.1280871
1.0000000 0.6859046 0.4930561
1.0000000 0.8883495 0.7811996
0.0000004 0.6421995 0.0029805
0.0000004 0.6443871 0.0029576
0.0000007 0.6480734 0.0029248
0.0000037 0.6650931 0.0028612
0.0132088 0.7459090 0.0051713
0.7657103 0.8228130 0.1140532
1.0000000 0.5981200 0.1730479
1.0000000 0.7270068 0.5065171
1.0000000 0.8927906 0.7827773
0.0719612 0.9587833 0.1701264
0.0732125 0.9591684 0.1704822
0.0753192 0.9598091 0.1710814
0.0850533 0.9626622 0.1738594
0.1352687 0.9755272 0.1888033
0.4080485 1.0000000 0.3021581
0.9612796 1.0000000 0.6079365
1.0000000 0.8820770 0.5748472
1.0000000 0.9121531 0.7901384
0.6066523 1.0000000 0.6319138
0.6068839 1.0000000 0.6320125
0.6072696 1.0000000 0.6321769
0.6089912 1.0000000 0.6329135
0.6168835 1.0000000 0.6363479
0.6534581 1.0000000 0.6534666
0.8098320 1.0000000 0.7481489
1.0000000 1.0000000 0.8809889
1.0000000 0.9801400 0.8263493
0.8863190 1.0000000 0.8920791
0.8863381 1.0000000 0.8920877
0.8863707 1.0000000 0.8921033
0.8865148 1.0000000 0.8921705
0.8871723 1.0000000 0.8924791
0.8901731 1.0000000 0.8939093
0.9037664 1.0000000 0.9008276
0.9560052 1.0000000 0.9346769
1.0000000 1.0000000 0.9685429
0.0000005 0.0000112 0.0051765
0.0030262 0.0000023 0.0071251
0.0151007 0.0000018 0.0085199
0.0854730 0.0000559 0.0080986
0.3421458 0.0008876 0.0071179
0.7855357 0.0223979 0.0138957
1.0000000 0.2802497 0.1231976
1.0000000 0.6742494 0.4902833
1.0000000 0.8871190 0.7808797
0.0000000 0.0014850 0.0061369
0.0011964 0.0015029 0.0076097
0.0135013 0.0004858 0.0087354
0.0869882 0.0002920 0.0073486
0.3464054 0.0014071 0.0069135
0.7877028 0.0244759 0.0138235
1.0000000 0.2818643 0.1233717
1.0000000 0.6745252 0.4903668
1.0000000 0.8871484 0.7808900
0.0000000 0.0063314 0.0085188
0.0000003 0.0075959 0.0089764
0.0090975 0.0090975 0.0090975
0.0888659 0.0031295 0.0061436
0.3534617 0.0029753 0.0065811
0.7913004 0.0282439 0.0137035
1.0000000 0.2845559 0.1236637
1.0000000 0.6749842 0.4905061
1.0000000 0.8871967 0.7809067
0.0000000 0.0467908 0.0115816
0.0000000 0.0497325 0.0105013
0.0000002 0.0556981 0.0083417
0.0716233 0.0636378 0.0033131
0.3818054 0.0331567 0.0052171
0.8070835 0.0496722 0.0131762
1.0000000 0.2965879 0.1249931
1.0000000 0.6770264 0.4911285
1.0000000 0.8874123 0.7809820
0.0000000 0.2453564 0.0028157
0.0000000 0.2494321 0.0024379
0.0000000 0.2566636 0.0019196
0.0000064 0.2926797 0.0008012
0.3484239 0.3373595 0.0032114
0.8670807 0.2084604 0.0112724
1.0000000 0.3521405 0.1316941
1.0000000 0.6862916 0.4939868
1.0000000 0.8883944 0.7813261
0.0000004 0.6461754 0.0039854
0.0000005 0.6483738 0.0039579
0.0000007 0.6520763 0.0039189
0.0000040 0.6691266 0.0038519
0.0140989 0.7491229 0.0069658
0.7655894 0.8214452 0.1252013
1.0000000 0.5994168 0.1770803
1.0000000 0.7273507 0.5074370
1.0000000 0.8928337 0.7829026
0.0729566 0.9595736 0.1727439
0.0742160 0.9599575 0.1731026
0.0763367 0.9605969 0.1737071
0.0861282 0.9634422 0.1765073
0.1365319 0.9762609 0.1915460
0.4094616 1.0000000 0.3051025
0.9611808 1.0000000 0.6101307
1.0000000 0.8822287 0.5756800
1.0000000 0.9121891 0.7902601
0.6069132 1.0000000 0.6323616
0.6071453 1.0000000 0.6324602
0.6075310 1.0000000 0.6326245
0.6092523 1.0000000 0.6333610
0.6171448 1.0000000 0.6367960
0.6537125 1.0000000 0.6539114
0.8100082 1.0000000 0.7485178
1.0000000 1.0000000 0.8811939
1.0000000 0.9801483 0.8264514
0.8863406 1.0000000 0.8921160
0.8863596 1.0000000 0.8921246
0.8863913 1.0000000 0.8921397
0.8865362 1.0000000 0.8922075
0.8871933 1.0000000 0.8925161
0.8901943 1.0000000 0.8939461
0.9037860 1.0000000 0.9008628
0.9560159 1.0000000 0.9347031
1.0000000 1.0000000 0.9685596
0.0000208 0.0004759 0.0560443
0.0022007 0.0003637 0.0602983
0.0181555 0.0001900 0.0665784
0.1154058 0.0001094 0.0711059
0.4070464 0.0014184 0.0516479
0.8142448 0.0278825 0.0335256
1.0000000 0.2881223 0.1388590
1.0000000 0.6760219 0.4944290
1.0000000 0.8873219 0.7814425
0.0000026 0.0030801 0.0574843
0.0004433 0.0027064 0.0613952
0.0140999 0.0016928 0.0672472
0.1123702 0.0004775 0.0713802
0.4098279 0.0022165 0.0519789
0.8162562 0.0303195 0.0334876
1.0000000 0.2897366 0.1390486
1.0000000 0.6762965 0.4945127
1.0000000 0.8873509 0.7814525
0.0000001 0.0114927 0.0604647
0.0000157 0.0117210 0.0636542
0.0070435 0.0110663 0.0684145
0.1063669 0.0045002 0.0717925
0.4141856 0.0045562 0.0525369
0.8195876 0.0346937 0.0334238
1.0000000 0.2924267 0.1393658
1.0000000 0.6767536 0.4946513
1.0000000 0.8873986 0.7814691
0.0000000 0.0573353 0.0735243
0.0000000 0.0597533 0.0742852
0.0000007 0.0635831 0.0749843
0.0711206 0.0711206 0.0711206
0.4277431 0.0428083 0.0550148
0.8340886 0.0587604 0.0331355
1.0000000 0.3044501 0.1408080
1.0000000 0.6787868 0.4952716
1.0000000 0.8876141 0.7815448
0.0000000 0.2739292 0.0522104
0.0000000 0.2783591 0.0513607
0.0000000 0.2858916 0.0499274
0.0000099 0.3184335 0.0440504
0.3472633 0.3400792 0.0594355
0.8866663 0.2240010 0.0323399
1.0000000 0.3598729 0.1480113
1.0000000 0.6880111 0.4981218
1.0000000 0.8885947 0.7818876
0.0000006 0.6636606 0.0130569
0.0000007 0.6658926 0.0130148
0.0000010 0.6696398 0.0129619
0.0000058 0.6867107 0.0130054
0.0188402 0.7624837 0.0224130
0.7644307 0.8147015 0.1755138
1.0000000 0.6051446 0.1951367
1.0000000 0.7288778 0.5115227
1.0000000 0.8930271 0.7834618
0.0774993 0.9630421 0.1844776
0.0787949 0.9634215 0.1848494
0.0809751 0.9640537 0.1854757
0.0910135 0.9668637 0.1883710
0.1422261 0.9794674 0.2038186
0.4157543 1.0000000 0.3181887
0.9607204 1.0000000 0.6197899
1.0000000 0.8829036 0.5793778
1.0000000 0.9123494 0.7908037
0.6080751 1.0000000 0.6343516
0.6083073 1.0000000 0.6344507
0.6086927 1.0000000 0.6346149
0.6104136 1.0000000 0.6353518
0.6183034 1.0000000 0.6387872
0.6548434 1.0000000 0.6558884
0.8107901 1.0000000 0.7501554
1.0000000 1.0000000 0.8821026
1.0000000 0.9801844 0.8269063
0.8864341 1.0000000 0.8922794
0.8864536 1.0000000 0.8922887
0.8864857 1.0000000 0.8923037
0.8866298 1.0000000 0.8923709
0.8872873 1.0000000 0.8926798
0.8902870 1.0000000 0.8941091
0.9038725 1.0000000 0.9010209
0.9560652 1.0000000 0.9348206
1.0000000 1.0000000 0.9686322
0.0000785 0.0138859 0.3263574
0.0002831 0.0139666 0.3317662
0.0021830 0.0140383 0.3400721
0.0865293 0.0142798 0.3645867
0.4738458 0.0319678 0.3583467
0.9115932 0.0724460 0.2102822
1.0000000 0.3249512 0.2140112
1.0000000 0.6840261 0.5131135
1.0000000 0.8882399 0.7839937
0.0000508 0.0193277 0.3276208
0.0001835 0.0194866 0.3328699
0.0014601 0.0196651 0.3409174
0.0820817 0.0201298 0.3644692
0.4704732 0.0390026 0.3582130
0.9126546 0.0765557 0.2109090
1.0000000 0.3265498 0.2142581
1.0000000 0.6842952 0.5131956
1.0000000 0.8882683 0.7840034
0.0000251 0.0298975 0.3297676
0.0000905 0.0302456 0.3347375
0.0007401 0.0307047 0.3423319
0.0746823 0.0319117 0.3641956
0.4647226 0.0518307 0.3578624
0.9143780 0.0836055 0.2119524
1.0000000 0.3292129 0.2146715
1.0000000 0.6847430 0.5133330
1.0000000 0.8883166 0.7840205
0.0000016 0.0842127 0.3394798
0.0000055 0.0855827 0.3431069
0.0000440 0.0876770 0.3485081
0.0426695 0.0944194 0.3621258
0.4379805 0.1146656 0.3547349
0.9213437 0.1176007 0.2165922
1.0000000 0.3410943 0.2165363
1.0000000 0.6867352 0.5139449
1.0000000 0.8885302 0.7840948
0.0000000 0.3154348 0.3481995
0.0000000 0.3176993 0.3490348
0.0000002 0.3211728 0.3501019
0.0002193 0.3317362 0.3499694
0.3378077 0.3378077 0.3378077
0.9350740 0.2960082 0.2378165
1.0000000 0.3954842 0.2255659
1.0000000 0.6957699 0.5167522
1.0000000 0.8895034 0.7844349
0.0000039 0.7308396 0.1530640
0.0000049 0.7328926 0.1535451
0.0000072 0.7362899 0.1543874
0.0000416 0.7509925 0.1588215
0.0591298 0.7988728 0.1975717
0.7505347 0.7774438 0.3858186
1.0000000 0.6302345 0.2780504
1.0000000 0.7357582 0.5299212
1.0000000 0.8939023 0.7859943
0.1002875 0.9777131 0.2390765
0.1017264 0.9780685 0.2395011
0.1041403 0.9786597 0.2402151
0.1151429 0.9812760 0.2434942
0.1694089 0.9927675 0.2605254
0.4442944 1.0000000 0.3770245
0.9582409 1.0000000 0.6614594
1.0000000 0.8859087 0.5959833
1.0000000 0.9130760 0.7932650
0.6133701 1.0000000 0.6433710
0.6136012 1.0000000 0.6434698
0.6139868 1.0000000 0.6436346
0.6157051 1.0000000 0.6443721
0.6235793 1.0000000 0.6478069
0.6599818 1.0000000 0.6648328
0.8143169 1.0000000 0.7575272
1.0000000 1.0000000 0.8861715
1.0000000 0.9803482 0.8289712
0.8868616 1.0000000 0.8930245
0.8868815 1.0000000 0.8930339
0.8869138 1.0000000 0.8930491
0.8870570 1.0000000 0.8931160
0.8877138 1.0000000 0.8934240
0.8907089 1.0000000 0.8948500
0.9042680 1.0000000 0.9017399
0.9562879 1.0000000 0.9353547
1.0000000 1.0000000 0.9689641
0.0022348 0.2249218 0.8283324
0.0029939 0.2264263 0.8296303
0.0048180 0.2289274 0.8316631
0.0290731 0.2400258 0.8387800
0.3140483 0.2914845 0.8359693
0.8441047 0.4468309 0.7517278
1.0000000 0.4953970 0.5445814
1.0000000 0.7186877 0.5931414
1.0000000 0.8923360 0.7953425
0.0021313 0.2293163 0.8280632
0.0028568 0.2308224 0.8293455
0.0046031 0.2333252 0.8313538
0.0281634 0.2444200 0.8383688
0.3128264 0.2956583 0.8352789
0.8431089 0.4498245 0.7515570
1.0000000 0.4967066 0.5448863
1.0000000 0.7189309 0.5932172
1.0000000 0.8923634 0.7953519
0.0019729 0.2366209 0.8276002
0.0026464 0.2381289 0.8288570
0.0042722 0.2406339 0.8308233
0.0267153 0.2517198 0.8376690
0.3108156 0.3025813 0.8341160
0.8414479 0.4547758 0.7512664
1.0000000 0.4988838 0.5453934
1.0000000 0.7193357 0.5933425
1.0000000 0.8924097 0.7953679
0.0014360 0.2689121 0.8253255
0.0019300 0.2704229 0.8264665
0.0031335 0.2729269 0.8282456
0.0212193 0.2839301 0.8343328
0.3022386 0.3329642 0.8287541
0.8340300 0.4763049 0.7498964
1.0000000 0.5085471 0.5476539
1.0000000 0.7211368 0.5939044
1.0000000 0.8926166 0.7954395
0.0006144 0.4069560 0.8112029
0.0008194 0.4083457 0.8118603
0.0013193 0.4106309 0.8128563
0.0098322 0.4203964 0.8157903
0.2719356 0.4586002 0.8026573
0.8013989 0.5618258 0.7428246
1.0000000 0.5517660 0.5579846
1.0000000 0.7292978 0.5964759
1.0000000 0.8935566 0.7957648
0.0080293 0.7692600 0.7064882
0.0094382 0.7695042 0.7070970
0.0122746 0.7698682 0.7080829
0.0344781 0.7708489 0.7120519
0.2520759 0.7634374 0.7215972
0.7334971 0.7334971 0.7334971
1.0000000 0.7232205 0.6056441
1.0000000 0.7652622 0.6084095
1.0000000 0.8978059 0.7972591
0.2263440 1.0000000 0.4810751
0.2280282 1.0000000 0.4816032
0.2308376 1.0000000 0.4824865
0.2434124 1.0000000 0.4864708
0.3017204 1.0000000 0.5056451
0.5611081 1.0000000 0.6077949
0.9433812 0.9603615 0.8012142
1.0000000 0.8982083 0.6660185
1.0000000 0.9163126 0.8042107
0.6371986 1.0000000 0.6830373
0.6374271 1.0000000 0.6831352
0.6378075 1.0000000 0.6832985
0.6395034 1.0000000 0.6840280
0.6472617 1.0000000 0.6874128
0.6828498 1.0000000 0.7038958
0.8295068 1.0000000 0.7890236
1.0000000 1.0000000 0.9031681
1.0000000 0.9810592 0.8381367
0.8888019 1.0000000 0.8963827
0.8888208 1.0000000 0.8963917
0.8888535 1.0000000 0.8964071
0.8889961 1.0000000 0.8964733
0.8896483 1.0000000 0.8967782
0.8926210 1.0000000 0.8981878
0.9060554 1.0000000 0.9049749
0.9572885 1.0000000 0.9377435
1.0000000 1.0000000 0.9704426
0.3640889 0.6840937 1.0000000
0.3664866 0.6845251 1.0000000
0.3704684 0.6852419 1.0000000
0.3880376 0.6884001 1.0000000
0.4644535 0.7021297 1.0000000
0.7239972 0.7527881 0.9958383
0.9737082 0.8400729 0.9412999
1.0000000 0.8360534 0.8397635
1.0000000 0.9091522 0.8412042
0.3641193 0.6848399 1.0000000
0.3665161 0.6852704 1.0000000
0.3704962 0.6859848 1.0000000
0.3880586 0.6891338 1.0000000
0.4644502 0.7028200 1.0000000
0.7239537 0.7533125 0.9956926
0.9735957 0.8403477 0.9412691
1.0000000 0.8361920 0.8398013
1.0000000 0.9091755 0.8412121
0.3641725 0.6860802 1.0000000
0.3665678 0.6865088 1.0000000
0.3705454 0.6872196 1.0000000
0.3880971 0.6903524 1.0000000
0.4644468 0.7039677 1.0000000
0.7238824 0.7541842 0.9954502
0.9734079 0.8408040 0.9412181
1.0000000 0.8364229 0.8398635
1.0000000 0.9092155 0.8412257
0.3644552 0.6915718 1.0000000
0.3668435 0.6919904 1.0000000
0.3708095 0.6926852 1.0000000
0.3883115 0.6957476 1.0000000
0.4644689 0.7090483 1.0000000
0.7235788 0.7580369 0.9943698
0.9725750 0.8428195 0.9409901
1.0000000 0.8374487 0.8401416
1.0000000 0.9093908 0.8412831
0.3666675 0.7158736 1.0000000
0.3690199 0.7162495 1.0000000
0.3729271 0.7168729 1.0000000
0.3901717 0.7196184 1.0000000
0.4653203 0.7315080 1.0000000
0.7225119 0.7749938 0.9894518
0.9688400 0.8516401 0.9399572
1.0000000 0.8420815 0.8414057
1.0000000 0.9101903 0.8415481
0.3932532 0.8093973 0.9947415
0.3953778 0.8095992 0.9947016
0.3989080 0.8099339 0.9946327
0.4145088 0.8113994 0.9942797
0.4829083 0.8175974 0.9917916
0.7235903 0.8387313 0.9688182
0.9538059 0.8841233 0.9357181
1.0000000 0.8622240 0.8470941
1.0000000 0.9138005 0.8427591
0.5649908 0.9802082 0.9187233
0.5660613 0.9801272 0.9188160
0.5678421 0.9799923 0.9189697
0.5757406 0.9793763 0.9196376
0.6110352 0.9762916 0.9223512
0.7511017 0.9584333 0.9284145
0.9338632 0.9338632 0.9338632
1.0000000 0.9332929 0.8717526
1.0000000 0.9294721 0.8483506
0.7308719 1.0000000 0.8250098
0.7310690 1.0000000 0.8250846
0.7313966 1.0000000 0.8252092
0.7328546 1.0000000 0.8257643
0.7394836 1.0000000 0.8283044
0.7690854 1.0000000 0.8399897
0.8806930 1.0000000 0.8906618
0.9950437 1.0000000 0.9535850
1.0000000 0.9836688 0.8749306
0.8973476 1.0000000 0.9107990
0.8973662 1.0000000 0.9108072
0.8973973 1.0000000 0.9108216
0.8975348 1.0000000 0.9108842
0.8981633 1.0000000 0.9111711
0.9010224 1.0000000 0.9124932
0.9138436 1.0000000 0.9187593
0.9615285 1.0000000 0.9477279
1.0000000 1.0000000 0.9765062
0.7941836 0.9245521 1.0000000
0.7944174 0.9245799 1.0000000
0.7948074 0.9246260 1.0000000
0.7965363 0.9248303 1.0000000
0.8042728 0.9257473 1.0000000
0.8364956 0.9296298 1.0000000
0.9304656 0.9431070 1.0000000
1.0000000 0.9660818 0.9929848
1.0000000 0.9563934 0.9557545
0.7941988 0.9246105 1.0000000
0.7944334 0.9246384 1.0000000
0.7948224 0.9246843 1.0000000
0.7965515 0.9248887 1.0000000
0.8042862 0.9258047 1.0000000
0.8365049 0.9296818 1.0000000
0.9304659 0.9431426 1.0000000
1.0000000 0.9660987 0.9929815
1.0000000 0.9564039 0.9557570
0.7942245 0.9247079 1.0000000
0.7944587 0.9247353 1.0000000
0.7948484 0.9247814 1.0000000
0.7965767 0.9249851 1.0000000
0.8043098 0.9258992 1.0000000
0.8365206 0.9297685 1.0000000
0.9304656 0.9432015 1.0000000
1.0000000 0.9661271 0.9929765
1.0000000 0.9564217 0.9557610
0.7943414 0.9251407 1.0000000
0.7945752 0.9251678 1.0000000
0.7949641 0.9252133 1.0000000
0.7966902 0.9254153 1.0000000
0.8044142 0.9263210 1.0000000
0.8365898 0.9301538 1.0000000
0.9304652 0.9434647 1.0000000
1.0000000 0.9662533 0.9929540
1.0000000 0.9565017 0.9557789
0.7948884 0.9270958 1.0000000
0.7951216 0.9271222 1.0000000
0.7955079 0.9271657 1.0000000
0.7972244 0.9273592 1.0000000
0.8049054 0.9282265 1.0000000
0.8369180 0.9318948 1.0000000
0.9304682 0.9446526 1.0000000
1.0000000 0.9668230 0.9928522
1.0000000 0.9568653 0.9558599
0.7976952 0.9356169 1.0000000
0.7979216 0.9356381 1.0000000
0.7982984 0.9356734 1.0000000
0.7999674 0.9358297 1.0000000
0.8074408 0.9365298 1.0000000
0.8386592 0.9394826 1.0000000
0.9305837 0.9498171 1.0000000
1.0000000 0.9692993 0.9924070
1.0000000 0.9585037 0.9562295
0.8151448 0.9662281 1.0000000
0.8153372 0.9662315 1.0000000
0.8156579 0.9662371 1.0000000
0.8170781 0.9662617 1.0000000
0.8234538 0.9663697 1.0000000
0.8503764 0.9667696 1.0000000
0.9328001 0.9682348 1.0000000
0.9953569 0.9781389 0.9908000
1.0000000 0.9655485 0.9579042
0.8810397 1.0000000 0.9905707
0.8811231 1.0000000 0.9905733
0.8812619 1.0000000 0.9905770
0.8818800 1.0000000 0.9905945
0.8846745 1.0000000 0.9906695
0.8969161 1.0000000 0.9909061
0.9416686 0.9998114 0.9903790
0.9902092 0.9902093 0.9902093
1.0000000 0.9892625 0.9654630
0.9285594 1.0000000 0.9579682
0.9285740 1.0000000 0.9579734
0.9285983 1.0000000 0.9579821
0.9287069 1.0000000 0.9580215
0.9292006 1.0000000 0.9582006
0.9314371 1.0000000 0.9590175
0.9412271 1.0000000 0.9627052
0.9752031 1.0000000 0.9776309
1.0000000 1.0000000 0.9932486
0.9481357 0.9884119 1.0000000
0.9481524 0.9884127 1.0000000
0.9481784 0.9884141 1.0000000
0.9482968 0.9884202 1.0000000
0.9488339 0.9884477 1.0000000
0.9512269 0.9885737 1.0000000
0.9610261 0.9891395 1.0000000
0.9879998 0.9917127 1.0000000
1.0000000 0.9972131 1.0000000
0.9481375 0.9884153 1.0000000
0.9481533 0.9884162 1.0000000
0.9481797 0.9884176 1.0000000
0.9482983 0.9884238 1.0000000
0.9488351 0.9884515 1.0000000
0.9512279 0.9885778 1.0000000
0.9610268 0.9891425 1.0000000
0.9879998 0.9917147 1.0000000
1.0000000 0.9972140 1.0000000
0.9481396 0.9884213 1.0000000
0.9481555 0.9884220 1.0000000
0.9481823 0.9884238 1.0000000
0.9483005 0.9884296 1.0000000
0.9488372 0.9884575 1.0000000
0.9512299 0.9885834 1.0000000
0.9610282 0.9891480 1.0000000
0.9879999 0.9917185 1.0000000
1.0000000 0.9972159 1.0000000
0.9481493 0.9884489 1.0000000
0.9481655 0.9884497 1.0000000
0.9481918 0.9884512 1.0000000
0.9483098 0.9884574 1.0000000
0.9488463 0.9884846 1.0000000
0.9512386 0.9886100 1.0000000
0.9610345 0.9891723 1.0000000
0.9880005 0.9917343 1.0000000
1.0000000 0.9972234 1.0000000
0.9481944 0.9885731 1.0000000
0.9482107 0.9885741 1.0000000
0.9482371 0.9885755 1.0000000
0.9483548 0.9885813 1.0000000
0.9488910 0.9886082 1.0000000
0.9512798 0.9887311 1.0000000
0.9610626 0.9892817 1.0000000
0.9880024 0.9918063 1.0000000
1.0000000 0.9972578 1.0000000
0.9484047 0.9891343 1.0000000
0.9484205 0.9891352 1.0000000
0.9484475 0.9891363 1.0000000
0.9485642 0.9891416 1.0000000
0.9490971 0.9891661 1.0000000
0.9514703 0.9892770 1.0000000
0.9611939 0.9897758 1.0000000
0.9880149 0.9921322 1.0000000
1.0000000 0.9974127 1.0000000
0.9494430 0.9915531 1.0000000
0.9494587 0.9915534 1.0000000
0.9494835 0.9915539 1.0000000
0.9495971 0.9915569 1.0000000
0.9501126 0.9915698 1.0000000
0.9524117 0.9916291 1.0000000
0.9618549 0.9919084 1.0000000
0.9880984 0.9935368 1.0000000
1.0000000 0.9980819 1.0000000
0.9552015 0.9998382 1.0000000
0.9552141 0.9998378 1.0000000
0.9552358 0.9998365 1.0000000
0.9553304 0.9998313 1.0000000
0.9557611 0.9998071 1.0000000
0.9576914 0.9996999 1.0000000
0.9657108 0.9992592 1.0000000
0.9888963 0.9983793 1.0000000
1.0000000 1.0000000 1.0000000
0.9735248 1.0000000 1.0000000
0.9735305 1.0000000 1.0000000
0.9735401 1.0000000 1.0000000
0.9735807 1.0000000 1.0000000
0.9737662 1.0000000 1.0000000
0.9746061 1.0000000 1.0000000
0.9782458 1.0000000 1.0000000
0.9909835 1.0000000 1.0000000
1.0000000 1.0000000 1.0000000
