src/pipe/core/color/luts/opendrt_standard.cube
# opendrt_standard.cube: ACEScct-domain 3D LUT -> display-linear Rec.709
LUT_3D_SIZE 5
0.0000000 0.0000000 0.0000000
0.0070812 0.0000020 0.0000070
0.3164845 0.0007649 0.0017257
1.0000000 0.2774419 0.1176832
1.0000000 0.8870468 0.7806781
0.0000000 0.0036168 0.0000004
0.0073385 0.0062003 0.0000001
0.3284473 0.0026055 0.0014928
1.0000000 0.2817477 0.1181339
1.0000000 0.8871242 0.7807046
0.0000000 0.2342912 0.0002205
0.0000000 0.2449017 0.0001398
0.3470229 0.3342906 0.0004879
1.0000000 0.3493719 0.1259319
1.0000000 0.8883229 0.7811242
0.0713679 0.9583069 0.1685575
0.0747127 0.9593341 0.1695081
0.1345130 0.9750847 0.1871589
0.9613377 1.0000000 0.6066145
1.0000000 0.9121312 0.7900646
0.8863064 1.0000000 0.8920571
0.8863586 1.0000000 0.8920813
0.8871599 1.0000000 0.8924575
0.9037547 1.0000000 0.9008060
1.0000000 1.0000000 0.9685327
0.0000005 0.0000112 0.0051765
0.0151007 0.0000018 0.0085199
0.3421458 0.0008876 0.0071179
1.0000000 0.2802497 0.1231976
1.0000000 0.8871190 0.7808797
0.0000000 0.0063314 0.0085188
0.0090975 0.0090975 0.0090975
0.3534617 0.0029753 0.0065811
1.0000000 0.2845559 0.1236637
1.0000000 0.8871967 0.7809067
0.0000000 0.2453564 0.0028157
0.0000000 0.2566636 0.0019196
0.3484239 0.3373595 0.0032114
1.0000000 0.3521405 0.1316941
1.0000000 0.8883944 0.7813261
0.0729566 0.9595736 0.1727439
0.0763367 0.9605969 0.1737071
0.1365319 0.9762609 0.1915460
0.9611808 1.0000000 0.6101307
1.0000000 0.9121891 0.7902601
0.8863406 1.0000000 0.8921160
0.8863913 1.0000000 0.8921397
0.8871933 1.0000000 0.8925161
0.9037860 1.0000000 0.9008628
1.0000000 1.0000000 0.9685596
0.0000785 0.0138859 0.3263574
0.0021830 0.0140383 0.3400721
0.4738458 0.0319678 0.3583467
1.0000000 0.3249512 0.2140112
1.0000000 0.8882399 0.7839937
0.0000251 0.0298975 0.3297676
0.0007401 0.0307047 0.3423319
0.4647226 0.0518307 0.3578624
1.0000000 0.3292129 0.2146715
1.0000000 0.8883166 0.7840205
0.0000000 0.3154348 0.3481995
0.0000002 0.3211728 0.3501019
0.3378077 0.3378077 0.3378077
1.0000000 0.3954842 0.2255659
1.0000000 0.8895034 0.7844349
0.1002875 0.9777131 0.2390765
0.1041403 0.9786597 0.2402151
0.1694089 0.9927675 0.2605254
0.9582409 1.0000000 0.6614594
1.0000000 0.9130760 0.7932650
0.8868616 1.0000000 0.8930245
0.8869138 1.0000000 0.8930491
0.8877138 1.0000000 0.8934240
0.9042680 1.0000000 0.9017399
1.0000000 1.0000000 0.9689641
0.3640889 0.6840937 1.0000000
0.3704684 0.6852419 1.0000000
0.4644535 0.7021297 1.0000000
0.9737082 0.8400729 0.9412999
1.0000000 0.9091522 0.8412042
0.3641725 0.6860802 1.0000000
0.3705454 0.6872196 1.0000000
0.4644468 0.7039677 1.0000000
0.9734079 0.8408040 0.9412181
1.0000000 0.9092155 0.8412257
0.3666675 0.7158736 1.0000000
0.3729271 0.7168729 1.0000000
0.4653203 0.7315080 1.0000000
0.9688400 0.8516401 0.9399572
1.0000000 0.9101903 0.8415481
0.5649908 0.9802082 0.9187233
0.5678421 0.9799923 0.9189697
0.6110352 0.9762916 0.9223512
0.9338632 0.9338632 0.9338632
1.0000000 0.9294721 0.8483506
0.8973476 1.0000000 0.9107990
0.8973973 1.0000000 0.9108216
0.8981633 1.0000000 0.9111711
0.9138436 1.0000000 0.9187593
1.0000000 1.0000000 0.9765062
0.9481357 0.9884119 1.0000000
0.9481784 0.9884141 1.0000000
0.9488339 0.9884477 1.0000000
0.9610261 0.9891395 1.0000000
1.0000000 0.9972131 1.0000000
0.9481396 0.9884213 1.0000000
0.9481823 0.9884238 1.0000000
0.9488372 0.9884575 1.0000000
0.9610282 0.9891480 1.0000000
1.0000000 0.9972159 1.0000000
0.9481944 0.9885731 1.0000000
0.9482371 0.9885755 1.0000000
0.9488910 0.9886082 1.0000000
0.9610626 0.9892817 1.0000000
1.0000000 0.9972578 1.0000000
0.9494430 0.9915531 1.0000000
0.9494835 0.9915539 1.0000000
0.9501126 0.9915698 1.0000000
0.9618549 0.9919084 1.0000000
1.0000000 0.9980819 1.0000000
0.9735248 1.0000000 1.0000000
0.9735401 1.0000000 1.0000000
0.9737662 1.0000000 1.0000000
0.9782458 1.0000000 1.0000000
1.0000000 1.0000000 1.0000000
