src/pipe/core/color/luts/opendrt_standard.cube
# opendrt_standard.cube: ACEScct-domain 3D LUT -> display-linear Rec.709
LUT_3D_SIZE 65
0.0000000 0.0000000 0.0000000
0.0000004 0.0000000 0.0000000
0.0000100 0.0000000 0.0000000
0.0000264 0.0000000 0.0000000
0.0000634 0.0000000 0.0000000
0.0001317 0.0000000 0.0000000
0.0002386 0.0000000 0.0000000
0.0003890 0.0000000 0.0000000
0.0005854 0.0000000 0.0000000
0.0008286 0.0000000 0.0000001
0.0011186 0.0000000 0.0000001
0.0014950 0.0000001 0.0000003
0.0020221 0.0000002 0.0000006
0.0027575 0.0000003 0.0000011
0.0037770 0.0000006 0.0000021
0.0051778 0.0000012 0.0000039
0.0070812 0.0000020 0.0000070
0.0096359 0.0000034 0.0000118
0.0130199 0.0000055 0.0000194
0.0174444 0.0000086 0.0000306
0.0231559 0.0000131 0.0000467
0.0304388 0.0000194 0.0000693
0.0396169 0.0000282 0.0001004
0.0510505 0.0000402 0.0001423
0.0651331 0.0000566 0.0001978
0.0822761 0.0000787 0.0002705
0.1028964 0.0001087 0.0003648
0.1273874 0.0001494 0.0004856
0.1560962 0.0002052 0.0006389
0.1892844 0.0002822 0.0008317
0.2271020 0.0003901 0.0010714
0.2695558 0.0005434 0.0013665
0.3164845 0.0007649 0.0017257
0.3675472 0.0010906 0.0021587
0.4222062 0.0015791 0.0026771
0.4797429 0.0023268 0.0032963
0.5392478 0.0034937 0.0040402
0.5996686 0.0053468 0.0049486
0.6598388 0.0083238 0.0060886
0.7185764 0.0131118 0.0075715
0.7747761 0.0207025 0.0095788
0.8275353 0.0323423 0.0123996
0.8762434 0.0493033 0.0164845
0.9206110 0.0725300 0.0225083
0.9606334 0.1023850 0.0314162
0.9964843 0.1386254 0.0443801
1.0000000 0.1805632 0.0625984
1.0000000 0.2272164 0.0869448
1.0000000 0.2774419 0.1176832
1.0000000 0.3300037 0.1544112
1.0000000 0.3836603 0.1962426
1.0000000 0.4372268 0.2420236
1.0000000 0.4896521 0.2905107
1.0000000 0.5400664 0.3404829
1.0000000 0.5878028 0.3908107
1.0000000 0.6324083 0.4405161
1.0000000 0.6736109 0.4887891
1.0000000 0.7113088 0.5350151
1.0000000 0.7455189 0.5787437
1.0000000 0.7763523 0.6196992
1.0000000 0.8039894 0.6577226
1.0000000 0.8286419 0.6927705
1.0000000 0.8505428 0.7248765
1.0000000 0.8699313 0.7541330
1.0000000 0.8870468 0.7806781
0.0000000 0.0000000 0.0000000
0.0000000 0.0000000 0.0000000
0.0000040 0.0000000 0.0000000
0.0000158 0.0000000 0.0000000
0.0000484 0.0000000 0.0000000
0.0001129 0.0000000 0.0000000
0.0002169 0.0000001 0.0000000
0.0003654 0.0000001 0.0000000
0.0005609 0.0000003 0.0000000
0.0008042 0.0000004 0.0000000
0.0010950 0.0000006 0.0000001
0.0014734 0.0000009 0.0000002
0.0020036 0.0000013 0.0000004
0.0027440 0.0000020 0.0000008
0.0037707 0.0000028 0.0000015
0.0051842 0.0000041 0.0000030
0.0071016 0.0000059 0.0000055
0.0096739 0.0000083 0.0000097
0.0130797 0.0000116 0.0000164
0.0175303 0.0000161 0.0000266
0.0232723 0.0000221 0.0000416
0.0305904 0.0000301 0.0000630
0.0398081 0.0000407 0.0000929
0.0512853 0.0000546 0.0001335
0.0654149 0.0000730 0.0001880
0.0826070 0.0000973 0.0002598
0.1032772 0.0001296 0.0003532
0.1278166 0.0001730 0.0004735
0.1565702 0.0002317 0.0006265
0.1897969 0.0003124 0.0008192
0.2276446 0.0004245 0.0010591
0.2701180 0.0005830 0.0013545
0.3170544 0.0008111 0.0017142
0.3681117 0.0011452 0.0021478
0.4227528 0.0016448 0.0026667
0.4802600 0.0024068 0.0032863
0.5397260 0.0035928 0.0040305
0.6001002 0.0054709 0.0049393
0.6602194 0.0084797 0.0060795
0.7189052 0.0133065 0.0075628
0.7750534 0.0209397 0.0095706
0.8277648 0.0326198 0.0123925
0.8764302 0.0496101 0.0164790
0.9207607 0.0728494 0.0225054
0.9607517 0.1026993 0.0314172
0.9965756 0.1389206 0.0443862
1.0000000 0.1808300 0.0626099
1.0000000 0.2274514 0.0869619
1.0000000 0.2776440 0.1177046
1.0000000 0.3301737 0.1544347
1.0000000 0.3838007 0.1962663
1.0000000 0.4373414 0.2420463
1.0000000 0.4897441 0.2905315
1.0000000 0.5401395 0.3405015
1.0000000 0.5878608 0.3908265
1.0000000 0.6324528 0.4405288
1.0000000 0.6736452 0.4887996
1.0000000 0.7113353 0.5350232
1.0000000 0.7455390 0.5787502
1.0000000 0.7763677 0.6197046
1.0000000 0.8040009 0.6577268
1.0000000 0.8286511 0.6927743
1.0000000 0.8505491 0.7248788
1.0000000 0.8699362 0.7541349
1.0000000 0.8870502 0.7806790
0.0000000 0.0000066 0.0000000
0.0000000 0.0000028 0.0000000
0.0000021 0.0000019 0.0000000
0.0000124 0.0000034 0.0000000
0.0000431 0.0000054 0.0000000
0.0001057 0.0000066 0.0000000
0.0002084 0.0000069 0.0000000
0.0003561 0.0000069 0.0000000
0.0005516 0.0000070 0.0000000
0.0007955 0.0000073 0.0000000
0.0010876 0.0000077 0.0000000
0.0014680 0.0000083 0.0000001
0.0020016 0.0000091 0.0000002
0.0027470 0.0000102 0.0000005
0.0037809 0.0000117 0.0000011
0.0052015 0.0000138 0.0000023
0.0071308 0.0000164 0.0000044
0.0097183 0.0000198 0.0000080
0.0131429 0.0000243 0.0000139
0.0176254 0.0000299 0.0000231
0.0233968 0.0000372 0.0000370
0.0307488 0.0000465 0.0000573
0.0400051 0.0000585 0.0000859
0.0515251 0.0000739 0.0001254
0.0657009 0.0000939 0.0001786
0.0829415 0.0001201 0.0002494
0.1036609 0.0001544 0.0003420
0.1282482 0.0002002 0.0004617
0.1570460 0.0002617 0.0006144
0.1903111 0.0003456 0.0008069
0.2281887 0.0004619 0.0010470
0.2706812 0.0006255 0.0013427
0.3176249 0.0008600 0.0017028
0.3686768 0.0012026 0.0021369
0.4233001 0.0017130 0.0026563
0.4807775 0.0024895 0.0032763
0.5402040 0.0036945 0.0040209
0.6005322 0.0055975 0.0049299
0.6606005 0.0086383 0.0060703
0.7192336 0.0135035 0.0075540
0.7753311 0.0211791 0.0095624
0.8279948 0.0328990 0.0123853
0.8766174 0.0499180 0.0164735
0.9209104 0.0731695 0.0225026
0.9608694 0.1030139 0.0314182
0.9966666 0.1392156 0.0443921
1.0000000 0.1810971 0.0626214
1.0000000 0.2276860 0.0869787
1.0000000 0.2778457 0.1177254
1.0000000 0.3303434 0.1544577
1.0000000 0.3839412 0.1962900
1.0000000 0.4374562 0.2420691
1.0000000 0.4898361 0.2905518
1.0000000 0.5402127 0.3405195
1.0000000 0.5879179 0.3908418
1.0000000 0.6324974 0.4405417
1.0000000 0.6736799 0.4888103
1.0000000 0.7113620 0.5350320
1.0000000 0.7455590 0.5787566
1.0000000 0.7763827 0.6197095
1.0000000 0.8040129 0.6577309
1.0000000 0.8286592 0.6927767
1.0000000 0.8505556 0.7248808
1.0000000 0.8699408 0.7541364
1.0000000 0.8870537 0.7806804
0.0000000 0.0000187 0.0000000
0.0000000 0.0000097 0.0000000
0.0000010 0.0000075 0.0000000
0.0000127 0.0000116 0.0000000
0.0000439 0.0000192 0.0000000
0.0001067 0.0000277 0.0000000
0.0002097 0.0000354 0.0000000
0.0003579 0.0000414 0.0000000
0.0005542 0.0000450 0.0000000
0.0007994 0.0000466 0.0000000
0.0010931 0.0000468 0.0000000
0.0014759 0.0000460 0.0000001
0.0020128 0.0000447 0.0000002
0.0027631 0.0000434 0.0000004
0.0038038 0.0000425 0.0000008
0.0052335 0.0000425 0.0000017
0.0071749 0.0000436 0.0000035
0.0097779 0.0000458 0.0000065
0.0132218 0.0000495 0.0000117
0.0177184 0.0000547 0.0000201
0.0235149 0.0000619 0.0000330
0.0308958 0.0000713 0.0000520
0.0402075 0.0000837 0.0000795
0.0517694 0.0000998 0.0001177
0.0659907 0.0001207 0.0001698
0.0832793 0.0001480 0.0002395
0.1040473 0.0001839 0.0003312
0.1286822 0.0002315 0.0004502
0.1575238 0.0002954 0.0006024
0.1908267 0.0003824 0.0007948
0.2287337 0.0005024 0.0010350
0.2712453 0.0006710 0.0013310
0.3181960 0.0009119 0.0016915
0.3692424 0.0012627 0.0021261
0.4238471 0.0017841 0.0026459
0.4812952 0.0025750 0.0032664
0.5406826 0.0037990 0.0040113
0.6009638 0.0057270 0.0049205
0.6609812 0.0087994 0.0060612
0.7195621 0.0137030 0.0075452
0.7756088 0.0214206 0.0095543
0.8282249 0.0331796 0.0123781
0.8768046 0.0502273 0.0164680
0.9210597 0.0734902 0.0224997
0.9609872 0.1033289 0.0314191
0.9967576 0.1395110 0.0443981
1.0000000 0.1813642 0.0626332
1.0000000 0.2279210 0.0869956
1.0000000 0.2780473 0.1177464
1.0000000 0.3305134 0.1544812
1.0000000 0.3840816 0.1963134
1.0000000 0.4375710 0.2420918
1.0000000 0.4899283 0.2905726
1.0000000 0.5402862 0.3405380
1.0000000 0.5879754 0.3908570
1.0000000 0.6325422 0.4405545
1.0000000 0.6737141 0.4888204
1.0000000 0.7113882 0.5350397
1.0000000 0.7455796 0.5787638
1.0000000 0.7763983 0.6197149
1.0000000 0.8040239 0.6577347
1.0000000 0.8286679 0.6927797
1.0000000 0.8505619 0.7248828
1.0000000 0.8699459 0.7541386
1.0000000 0.8870574 0.7806811
0.0000000 0.0000391 0.0000000
0.0000000 0.0000254 0.0000000
0.0000000 0.0000218 0.0000000
0.0000130 0.0000282 0.0000000
0.0000469 0.0000412 0.0000000
0.0001118 0.0000572 0.0000000
0.0002166 0.0000736 0.0000000
0.0003666 0.0000891 0.0000000
0.0005648 0.0001024 0.0000000
0.0008121 0.0001130 0.0000000
0.0011081 0.0001205 0.0000000
0.0014936 0.0001253 0.0000000
0.0020342 0.0001268 0.0000001
0.0027895 0.0001244 0.0000003
0.0038368 0.0001187 0.0000006
0.0052754 0.0001114 0.0000013
0.0072283 0.0001045 0.0000028
0.0098461 0.0000995 0.0000054
0.0133086 0.0000972 0.0000100
0.0178280 0.0000978 0.0000175
0.0236519 0.0001015 0.0000294
0.0310649 0.0001085 0.0000473
0.0403902 0.0001192 0.0000734
0.0520178 0.0001343 0.0001104
0.0662840 0.0001548 0.0001613
0.0836199 0.0001822 0.0002299
0.1044362 0.0002188 0.0003207
0.1291181 0.0002676 0.0004389
0.1580033 0.0003334 0.0005907
0.1913438 0.0004229 0.0007829
0.2292801 0.0005465 0.0010231
0.2718104 0.0007197 0.0013193
0.3187677 0.0009668 0.0016803
0.3698083 0.0013258 0.0021153
0.4243949 0.0018580 0.0026356
0.4818132 0.0026633 0.0032564
0.5411611 0.0039063 0.0040016
0.6013957 0.0058591 0.0049111
0.6613621 0.0089632 0.0060521
0.7198905 0.0139049 0.0075364
0.7758862 0.0216641 0.0095460
0.8284543 0.0334619 0.0123709
0.8769914 0.0505377 0.0164625
0.9212093 0.0738118 0.0224968
0.9611048 0.1036442 0.0314201
0.9968486 0.1398067 0.0444041
1.0000000 0.1816317 0.0626449
1.0000000 0.2281560 0.0870127
1.0000000 0.2782492 0.1177674
1.0000000 0.3306836 0.1545047
1.0000000 0.3842225 0.1963372
1.0000000 0.4376856 0.2421142
1.0000000 0.4900206 0.2905934
1.0000000 0.5403591 0.3405558
1.0000000 0.5880331 0.3908728
1.0000000 0.6325869 0.4405673
1.0000000 0.6737488 0.4888310
1.0000000 0.7114150 0.5350484
1.0000000 0.7455993 0.5787699
1.0000000 0.7764134 0.6197197
1.0000000 0.8040358 0.6577387
1.0000000 0.8286765 0.6927823
1.0000000 0.8505688 0.7248855
1.0000000 0.8699508 0.7541397
1.0000000 0.8870612 0.7806827
0.0000000 0.0000724 0.0000000
0.0000000 0.0000546 0.0000000
0.0000000 0.0000499 0.0000000
0.0000100 0.0000583 0.0000000
0.0000484 0.0000770 0.0000000
0.0001167 0.0001008 0.0000000
0.0002246 0.0001261 0.0000000
0.0003778 0.0001509 0.0000000
0.0005790 0.0001738 0.0000000
0.0008292 0.0001943 0.0000000
0.0011283 0.0002116 0.0000000
0.0015172 0.0002267 0.0000000
0.0020622 0.0002389 0.0000001
0.0028228 0.0002453 0.0000002
0.0038771 0.0002435 0.0000005
0.0053246 0.0002329 0.0000010
0.0072889 0.0002158 0.0000022
0.0099212 0.0001970 0.0000045
0.0134017 0.0001807 0.0000085
0.0179434 0.0001692 0.0000153
0.0237940 0.0001633 0.0000262
0.0312386 0.0001630 0.0000430
0.0406002 0.0001684 0.0000679
0.0522368 0.0001798 0.0001036
0.0665380 0.0001978 0.0001531
0.0839633 0.0002240 0.0002207
0.1048274 0.0002600 0.0003105
0.1295560 0.0003091 0.0004280
0.1584844 0.0003761 0.0005792
0.1918622 0.0004677 0.0007712
0.2298272 0.0005943 0.0010114
0.2723760 0.0007719 0.0013078
0.3193401 0.0010249 0.0016691
0.3703748 0.0013920 0.0021046
0.4249428 0.0019349 0.0026253
0.4823312 0.0027544 0.0032465
0.5416396 0.0040164 0.0039921
0.6018274 0.0059940 0.0049018
0.6617431 0.0091298 0.0060430
0.7202189 0.0141093 0.0075277
0.7761632 0.0219098 0.0095379
0.8286843 0.0337459 0.0123638
0.8771780 0.0508489 0.0164570
0.9213589 0.0741340 0.0224940
0.9612225 0.1039601 0.0314212
0.9969394 0.1401024 0.0444101
1.0000000 0.1818989 0.0626565
1.0000000 0.2283908 0.0870298
1.0000000 0.2784510 0.1177885
1.0000000 0.3308536 0.1545279
1.0000000 0.3843633 0.1963613
1.0000000 0.4378001 0.2421374
1.0000000 0.4901127 0.2906144
1.0000000 0.5404325 0.3405744
1.0000000 0.5880902 0.3908882
1.0000000 0.6326317 0.4405801
1.0000000 0.6737832 0.4888414
1.0000000 0.7114414 0.5350569
1.0000000 0.7456197 0.5787766
1.0000000 0.7764286 0.6197252
1.0000000 0.8040475 0.6577425
1.0000000 0.8286858 0.6927860
1.0000000 0.8505754 0.7248879
1.0000000 0.8699555 0.7541416
1.0000000 0.8870645 0.7806838
0.0000000 0.0001224 0.0000000
0.0000000 0.0001012 0.0000000
0.0000000 0.0000956 0.0000000
0.0000023 0.0001060 0.0000000
0.0000458 0.0001300 0.0000000
0.0001187 0.0001622 0.0000000
0.0002304 0.0001972 0.0000000
0.0003872 0.0002317 0.0000000
0.0005923 0.0002642 0.0000000
0.0008464 0.0002939 0.0000000
0.0011493 0.0003205 0.0000000
0.0015426 0.0003459 0.0000000
0.0020927 0.0003702 0.0000001
0.0028596 0.0003899 0.0000001
0.0039214 0.0004004 0.0000004
0.0053782 0.0003972 0.0000008
0.0073542 0.0003784 0.0000018
0.0100010 0.0003474 0.0000037
0.0134995 0.0003119 0.0000072
0.0180632 0.0002799 0.0000133
0.0239402 0.0002559 0.0000234
0.0314160 0.0002413 0.0000391
0.0408135 0.0002360 0.0000628
0.0524905 0.0002396 0.0000972
0.0668356 0.0002522 0.0001455
0.0842529 0.0002746 0.0002117
0.1052207 0.0003086 0.0003007
0.1299956 0.0003569 0.0004173
0.1589671 0.0004240 0.0005680
0.1923819 0.0005170 0.0007596
0.2303755 0.0006463 0.0009998
0.2729427 0.0008278 0.0012964
0.3199129 0.0010865 0.0016580
0.3709415 0.0014613 0.0020939
0.4254911 0.0020148 0.0026151
0.4828494 0.0028486 0.0032367
0.5421180 0.0041294 0.0039825
0.6022593 0.0061319 0.0048924
0.6621237 0.0092990 0.0060339
0.7205473 0.0143162 0.0075189
0.7764407 0.0221575 0.0095297
0.8289138 0.0340315 0.0123566
0.8773648 0.0511613 0.0164515
0.9215085 0.0744569 0.0224912
0.9613401 0.1042761 0.0314221
0.9970302 0.1403984 0.0444162
1.0000000 0.1821666 0.0626683
1.0000000 0.2286260 0.0870465
1.0000000 0.2786529 0.1178097
1.0000000 0.3310234 0.1545513
1.0000000 0.3845041 0.1963849
1.0000000 0.4379149 0.2421600
1.0000000 0.4902049 0.2906353
1.0000000 0.5405054 0.3405923
1.0000000 0.5881479 0.3909040
1.0000000 0.6326764 0.4405933
1.0000000 0.6738178 0.4888516
1.0000000 0.7114675 0.5350649
1.0000000 0.7456398 0.5787831
1.0000000 0.7764442 0.6197304
1.0000000 0.8040587 0.6577467
1.0000000 0.8286942 0.6927890
1.0000000 0.8505818 0.7248898
1.0000000 0.8699603 0.7541430
1.0000000 0.8870682 0.7806848
0.0000000 0.0001917 0.0000000
0.0000000 0.0001679 0.0000000
0.0000000 0.0001618 0.0000000
0.0000001 0.0001743 0.0000000
0.0000367 0.0002031 0.0000000
0.0001155 0.0002433 0.0000000
0.0002316 0.0002887 0.0000000
0.0003924 0.0003342 0.0000000
0.0006014 0.0003770 0.0000000
0.0008598 0.0004162 0.0000000
0.0011672 0.0004516 0.0000000
0.0015655 0.0004864 0.0000000
0.0021217 0.0005219 0.0000000
0.0028958 0.0005547 0.0000001
0.0039663 0.0005797 0.0000003
0.0054333 0.0005902 0.0000006
0.0074216 0.0005798 0.0000014
0.0100834 0.0005462 0.0000031
0.0136002 0.0004951 0.0000061
0.0181859 0.0004384 0.0000116
0.0240894 0.0003881 0.0000208
0.0315962 0.0003504 0.0000356
0.0410294 0.0003269 0.0000581
0.0527466 0.0003172 0.0000912
0.0671355 0.0003202 0.0001383
0.0845990 0.0003360 0.0002032
0.1055425 0.0003656 0.0002907
0.1304368 0.0004116 0.0004069
0.1594509 0.0004779 0.0005570
0.1929026 0.0005713 0.0007483
0.2309247 0.0007025 0.0009883
0.2735098 0.0008876 0.0012851
0.3204867 0.0011516 0.0016470
0.3715087 0.0015341 0.0020833
0.4260397 0.0020979 0.0026049
0.4833678 0.0029458 0.0032268
0.5425968 0.0042454 0.0039729
0.6026912 0.0062725 0.0048831
0.6625044 0.0094709 0.0060247
0.7208758 0.0145256 0.0075101
0.7767177 0.0224074 0.0095215
0.8291431 0.0343186 0.0123494
0.8775516 0.0514750 0.0164461
0.9216577 0.0747804 0.0224884
0.9614576 0.1045927 0.0314232
0.9971213 0.1406948 0.0444222
1.0000000 0.1824341 0.0626799
1.0000000 0.2288611 0.0870638
1.0000000 0.2788545 0.1178305
1.0000000 0.3311934 0.1545744
1.0000000 0.3846444 0.1964085
1.0000000 0.4380294 0.2421827
1.0000000 0.4902971 0.2906560
1.0000000 0.5405784 0.3406104
1.0000000 0.5882053 0.3909192
1.0000000 0.6327212 0.4406061
1.0000000 0.6738525 0.4888630
1.0000000 0.7114942 0.5350734
1.0000000 0.7456602 0.5787897
1.0000000 0.7764595 0.6197352
1.0000000 0.8040704 0.6577504
1.0000000 0.8287026 0.6927918
1.0000000 0.8505881 0.7248921
1.0000000 0.8699652 0.7541449
1.0000000 0.8870717 0.7806858
0.0000000 0.0002822 0.0000000
0.0000000 0.0002566 0.0000000
0.0000000 0.0002506 0.0000000
0.0000000 0.0002651 0.0000000
0.0000196 0.0002983 0.0000000
0.0001052 0.0003459 0.0000000
0.0002266 0.0004014 0.0000000
0.0003914 0.0004586 0.0000000
0.0006044 0.0005131 0.0000000
0.0008669 0.0005630 0.0000000
0.0011789 0.0006077 0.0000000
0.0015826 0.0006518 0.0000000
0.0021455 0.0006975 0.0000000
0.0029279 0.0007419 0.0000001
0.0040081 0.0007805 0.0000002
0.0054867 0.0008059 0.0000005
0.0074884 0.0008091 0.0000012
0.0101661 0.0007824 0.0000025
0.0137018 0.0007250 0.0000052
0.0183101 0.0006470 0.0000101
0.0242403 0.0005660 0.0000186
0.0317783 0.0004969 0.0000324
0.0412473 0.0004468 0.0000538
0.0530045 0.0004166 0.0000857
0.0674371 0.0004048 0.0001314
0.0849468 0.0004102 0.0001951
0.1059373 0.0004327 0.0002815
0.1308794 0.0004743 0.0003968
0.1599361 0.0005382 0.0005462
0.1934243 0.0006312 0.0007370
0.2314748 0.0007636 0.0009770
0.2740779 0.0009516 0.0012738
0.3210607 0.0012206 0.0016361
0.3720762 0.0016103 0.0020728
0.4265881 0.0021844 0.0025947
0.4838860 0.0030462 0.0032170
0.5430756 0.0043645 0.0039633
0.6031233 0.0064161 0.0048737
0.6628854 0.0096457 0.0060156
0.7212040 0.0147375 0.0075014
0.7769950 0.0226594 0.0095133
0.8293726 0.0346074 0.0123422
0.8777382 0.0517895 0.0164405
0.9218072 0.0751044 0.0224856
0.9615749 0.1049096 0.0314242
0.9972118 0.1409911 0.0444283
1.0000000 0.1827019 0.0626917
1.0000000 0.2290964 0.0870810
1.0000000 0.2790564 0.1178515
1.0000000 0.3313631 0.1545974
1.0000000 0.3847854 0.1964325
1.0000000 0.4381441 0.2422056
1.0000000 0.4903889 0.2906765
1.0000000 0.5406516 0.3406289
1.0000000 0.5882631 0.3909356
1.0000000 0.6327660 0.4406193
1.0000000 0.6738868 0.4888729
1.0000000 0.7115206 0.5350816
1.0000000 0.7456802 0.5787963
1.0000000 0.7764750 0.6197405
1.0000000 0.8040819 0.6577545
1.0000000 0.8287113 0.6927945
1.0000000 0.8505953 0.7248952
1.0000000 0.8699701 0.7541465
1.0000000 0.8870753 0.7806872
0.0000000 0.0003953 0.0000000
0.0000000 0.0003687 0.0000000
0.0000000 0.0003632 0.0000000
0.0000000 0.0003798 0.0000000
0.0000035 0.0004171 0.0000000
0.0000862 0.0004712 0.0000000
0.0002138 0.0005360 0.0000000
0.0003832 0.0006049 0.0000000
0.0005999 0.0006721 0.0000000
0.0008662 0.0007340 0.0000000
0.0011824 0.0007895 0.0000000
0.0015913 0.0008437 0.0000000
0.0021613 0.0008995 0.0000000
0.0029527 0.0009546 0.0000001
0.0040438 0.0010050 0.0000002
0.0055351 0.0010438 0.0000004
0.0075518 0.0010614 0.0000009
0.0102467 0.0010467 0.0000021
0.0138025 0.0009923 0.0000045
0.0184342 0.0009015 0.0000089
0.0243917 0.0007917 0.0000166
0.0319614 0.0006861 0.0000295
0.0414664 0.0006009 0.0000498
0.0532638 0.0005421 0.0000804
0.0677401 0.0005089 0.0001249
0.0852959 0.0004991 0.0001873
0.1063335 0.0005111 0.0002726
0.1312270 0.0005456 0.0003862
0.1604223 0.0006058 0.0005355
0.1939470 0.0006970 0.0007260
0.2320255 0.0008297 0.0009658
0.2746463 0.0010201 0.0012627
0.3216352 0.0012935 0.0016252
0.3726441 0.0016901 0.0020622
0.4271370 0.0022742 0.0025845
0.4844048 0.0031498 0.0032071
0.5435543 0.0044867 0.0039538
0.6035551 0.0065627 0.0048644
0.6632659 0.0098232 0.0060065
0.7215325 0.0149519 0.0074926
0.7772720 0.0229134 0.0095052
0.8296022 0.0348979 0.0123351
0.8779247 0.0521053 0.0164351
0.9219565 0.0754294 0.0224828
0.9616925 0.1052268 0.0314252
0.9973029 0.1412878 0.0444344
1.0000000 0.1829697 0.0627033
1.0000000 0.2293315 0.0870980
1.0000000 0.2792586 0.1178731
1.0000000 0.3315332 0.1546210
1.0000000 0.3849261 0.1964560
1.0000000 0.4382587 0.2422284
1.0000000 0.4904813 0.2906975
1.0000000 0.5407245 0.3406467
1.0000000 0.5883204 0.3909506
1.0000000 0.6328107 0.4406322
1.0000000 0.6739215 0.4888834
1.0000000 0.7115473 0.5350901
1.0000000 0.7457001 0.5788026
1.0000000 0.7764899 0.6197453
1.0000000 0.8040937 0.6577585
1.0000000 0.8287199 0.6927973
1.0000000 0.8506012 0.7248969
1.0000000 0.8699754 0.7541485
1.0000000 0.8870792 0.7806895
0.0000000 0.0005317 0.0000000
0.0000000 0.0005048 0.0000000
0.0000000 0.0005003 0.0000000
0.0000000 0.0005192 0.0000000
0.0000004 0.0005602 0.0000000
0.0000575 0.0006202 0.0000000
0.0001922 0.0006934 0.0000000
0.0003668 0.0007732 0.0000000
0.0005873 0.0008530 0.0000000
0.0008570 0.0009281 0.0000000
0.0011767 0.0009958 0.0000000
0.0015904 0.0010617 0.0000000
0.0021671 0.0011290 0.0000000
0.0029675 0.0011948 0.0000000
0.0040703 0.0012557 0.0000001
0.0055759 0.0013059 0.0000003
0.0076091 0.0013365 0.0000008
0.0103229 0.0013349 0.0000018
0.0139001 0.0012890 0.0000038
0.0185565 0.0011945 0.0000078
0.0245423 0.0010628 0.0000149
0.0321443 0.0009203 0.0000269
0.0416858 0.0007937 0.0000461
0.0535238 0.0006980 0.0000755
0.0680441 0.0006360 0.0001187
0.0856462 0.0006052 0.0001798
0.1067308 0.0006026 0.0002639
0.1316701 0.0006272 0.0003766
0.1607878 0.0006809 0.0005242
0.1944706 0.0007694 0.0007151
0.2325772 0.0009014 0.0009547
0.2752157 0.0010933 0.0012517
0.3222102 0.0013706 0.0016144
0.3732126 0.0017738 0.0020518
0.4276865 0.0023676 0.0025744
0.4849237 0.0032568 0.0031973
0.5440333 0.0046121 0.0039442
0.6039872 0.0067124 0.0048551
0.6636470 0.0100036 0.0059974
0.7218606 0.0151690 0.0074839
0.7775492 0.0231698 0.0094970
0.8298314 0.0351900 0.0123280
0.8781117 0.0524223 0.0164296
0.9221058 0.0757548 0.0224799
0.9618100 0.1055445 0.0314262
0.9973934 0.1415846 0.0444405
1.0000000 0.1832378 0.0627151
1.0000000 0.2295667 0.0871151
1.0000000 0.2794602 0.1178938
1.0000000 0.3317033 0.1546444
1.0000000 0.3850665 0.1964799
1.0000000 0.4383732 0.2422508
1.0000000 0.4905736 0.2907182
1.0000000 0.5407977 0.3406649
1.0000000 0.5883780 0.3909662
1.0000000 0.6328554 0.4406449
1.0000000 0.6739561 0.4888943
1.0000000 0.7115738 0.5350990
1.0000000 0.7457201 0.5788093
1.0000000 0.7765053 0.6197504
1.0000000 0.8041050 0.6577621
1.0000000 0.8287289 0.6928009
1.0000000 0.8506081 0.7248988
1.0000000 0.8699802 0.7541504
1.0000000 0.8870829 0.7806904
0.0000000 0.0007116 0.0000000
0.0000000 0.0006852 0.0000000
0.0000000 0.0006822 0.0000000
0.0000000 0.0007037 0.0000000
0.0000000 0.0007488 0.0000000
0.0000204 0.0008146 0.0000000
0.0001562 0.0008960 0.0000000
0.0003376 0.0009867 0.0000000
0.0005629 0.0010799 0.0000000
0.0008362 0.0011698 0.0000000
0.0011594 0.0012524 0.0000000
0.0015773 0.0013335 0.0000000
0.0021604 0.0014158 0.0000000
0.0029704 0.0014951 0.0000000
0.0040865 0.0015677 0.0000001
0.0056091 0.0016288 0.0000002
0.0076625 0.0016711 0.0000006
0.0103995 0.0016826 0.0000014
0.0140029 0.0016486 0.0000032
0.0186886 0.0015575 0.0000067
0.0247075 0.0014114 0.0000131
0.0323467 0.0012330 0.0000242
0.0419299 0.0010571 0.0000423
0.0538136 0.0009119 0.0000704
0.0683833 0.0008085 0.0001121
0.0860372 0.0007466 0.0001718
0.1071743 0.0007220 0.0002546
0.1321647 0.0007316 0.0003661
0.1613294 0.0007755 0.0005129
0.1950551 0.0008585 0.0007032
0.2331927 0.0009882 0.0009425
0.2758507 0.0011808 0.0012395
0.3228516 0.0014618 0.0016025
0.3738461 0.0018718 0.0020401
0.4282987 0.0024760 0.0025632
0.4855020 0.0033800 0.0031864
0.5445670 0.0047557 0.0039336
0.6044686 0.0068828 0.0048447
0.6640713 0.0102081 0.0059873
0.7222264 0.0154138 0.0074741
0.7778578 0.0234579 0.0094879
0.8300869 0.0355174 0.0123200
0.8783193 0.0527767 0.0164236
0.9222718 0.0761185 0.0224769
0.9619405 0.1058989 0.0314275
0.9974945 0.1419156 0.0444473
1.0000000 0.1835366 0.0627282
1.0000000 0.2298291 0.0871341
1.0000000 0.2796856 0.1179175
1.0000000 0.3318927 0.1546703
1.0000000 0.3852233 0.1965065
1.0000000 0.4385010 0.2422759
1.0000000 0.4906760 0.2907411
1.0000000 0.5408796 0.3406852
1.0000000 0.5884420 0.3909833
1.0000000 0.6329051 0.4406592
1.0000000 0.6739946 0.4889057
1.0000000 0.7116029 0.5351079
1.0000000 0.7457430 0.5788170
1.0000000 0.7765226 0.6197565
1.0000000 0.8041184 0.6577670
1.0000000 0.8287386 0.6928043
1.0000000 0.8506150 0.7249011
1.0000000 0.8699855 0.7541520
1.0000000 0.8870866 0.7806914
0.0000000 0.0009680 0.0000000
0.0000000 0.0009431 0.0000000
0.0000000 0.0009427 0.0000000
0.0000000 0.0009677 0.0000000
0.0000000 0.0010175 0.0000000
0.0000022 0.0010895 0.0000000
0.0000957 0.0011795 0.0000000
0.0002855 0.0012816 0.0000000
0.0005175 0.0013893 0.0000000
0.0007956 0.0014962 0.0000000
0.0011224 0.0015972 0.0000000
0.0015444 0.0016985 0.0000000
0.0021336 0.0018025 0.0000000
0.0029534 0.0019021 0.0000000
0.0040846 0.0019912 0.0000001
0.0056282 0.0020650 0.0000002
0.0077082 0.0021182 0.0000004
