resources/ocio/love-v01/config.ocio
ocio_profile_version: 1

search_path: luts
strictparsing: true
luma: [0.2126, 0.7152, 0.0722]

description: An ACES config generated from python


roles:
  color_picking: Output - sRGB
  color_timing: ACES - ACEScc
  compositing_linear: ACES - ACEScg
  compositing_log: Input - ADX - ADX10
  data: Utility - Raw
  default: ACES - ACES2065-1
  matte_paint: Utility - sRGB - Texture
  reference: Utility - Raw
  rendering: ACES - ACEScg
  scene_linear: ACES - ACEScg
  texture_paint: ACES - ACEScc

displays:
  ACES:
    - !<View> {name: Rec.709, colorspace: Output - Rec.709}


active_displays: [ACES]
active_views: [sRGB, DCDM, DCDM P3D60 Limited, DCDM P3D65 Limited, P3-D60, P3-D65 ST2084 1000 nits, P3-D65 ST2084 2000 nits, P3-D65 ST2084 4000 nits, P3-DCI D60 simulation, P3-DCI D65 simulation, P3D65, P3D65 D60 simulation, P3D65 Rec.709 Limited, P3D65 ST2084 108 nits, Rec.2020, Rec.2020 P3D65 Limited, Rec.2020 Rec.709 Limited, Rec.2020 HLG 1000 nits, Rec.2020 ST2084 1000 nits, Rec.2020 ST2084 2000 nits, Rec.2020 ST2084 4000 nits, Rec.709, Rec.709 D60 sim., sRGB D60 sim., Raw, Log]

colorspaces:
  - !<ColorSpace>
    name: ACES - ACES2065-1
    family: ACES
    equalitygroup: ""
    bitdepth: 32f
    description: |
      The Academy Color Encoding System reference color space
    isdata: false
    allocation: lg2
    allocationvars: [-8, 5, 0.00390625]

  - !<ColorSpace>
    name: ACES - ACEScc
    family: ACES
    equalitygroup: ""
    bitdepth: 32f
    description: |
      The ACEScc color space
      
      ACES Transform ID : ACEScsc.Academy.ACEScc_to_ACES
    isdata: false
    allocation: uniform
    allocationvars: [-0.3584, 1.468]
    to_reference: !<GroupTransform>
      children:
        - !<FileTransform> {src: ACEScc_to_linear.spi1d, interpolation: linear}
        - !<MatrixTransform> {matrix: [0.695452, 0.140679, 0.163869, 0, 0.0447946, 0.859671, 0.0955343, 0, -0.00552588, 0.00402521, 1.0015, 0, 0, 0, 0, 1]}

  - !<ColorSpace>
    name: ACES - ACEScct
    family: ACES
    equalitygroup: ""
    bitdepth: 32f
    description: |
      The ACEScct color space
      
      ACES Transform ID : ACEScsc.Academy.ACEScct_to_ACES
    isdata: false
    allocation: uniform
    allocationvars: [-0.249136, 1.468]
    to_reference: !<GroupTransform>
      children:
        - !<FileTransform> {src: ACEScct_to_linear.spi1d, interpolation: linear}
        - !<MatrixTransform> {matrix: [0.695452, 0.140679, 0.163869, 0, 0.0447946, 0.859671, 0.0955343, 0, -0.00552588, 0.00402521, 1.0015, 0, 0, 0, 0, 1]}

  - !<ColorSpace>
    name: ACES - ACESproxy
    family: ACES
    equalitygroup: ""
    bitdepth: 32f
    description: |
      The ACESproxy color space
      
      ACES Transform ID : ACEScsc.Academy.ACESproxy10i_to_ACES
    isdata: false
    allocation: uniform
    allocationvars: [0, 1]
    to_reference: !<GroupTransform>
      children:
        - !<FileTransform> {src: ACESproxy_to_linear.spi1d, interpolation: linear}
        - !<MatrixTransform> {matrix: [0.695452, 0.140679, 0.163869, 0, 0.0447946, 0.859671, 0.0955343, 0, -0.00552588, 0.00402521, 1.0015, 0, 0, 0, 0, 1]}

  - !<ColorSpace>
    name: ACES - ACEScg
    family: ACES
    equalitygroup: ""
    bitdepth: 32f
    description: |
      The ACEScg color space
      
      ACES Transform ID : ACEScsc.Academy.ACEScg_to_ACES
    isdata: false
    allocation: lg2
    allocationvars: [-8, 5, 0.00390625]
    to_reference: !<MatrixTransform> {matrix: [0.695452, 0.140679, 0.163869, 0, 0.0447946, 0.859671, 0.0955343, 0, -0.00552588, 0.00402521, 1.0015, 0, 0, 0, 0, 1]}

  - !<ColorSpace>
    name: Input - ADX - ADX10
    family: Input/ADX
    equalitygroup: ""
    bitdepth: 10ui
    description: |
      ADX10 color space - used for film scans
      
      ACES Transform ID : ACEScsc.Academy.ADX10_to_ACES
    isdata: false
    allocation: uniform
    allocationvars: [0, 1]
    to_reference: !<GroupTransform>
      children:
        - !<MatrixTransform> {matrix: [2.046, 0, 0, 0, 0, 2.046, 0, 0, 0, 0, 2.046, 0, 0, 0, 0, 1], offset: [-0.19, -0.19, -0.19, 0]}
        - !<MatrixTransform> {matrix: [0.75573, 0.22197, 0.0223, 0, 0.05901, 0.96928, -0.02829, 0, 0.16134, 0.07406, 0.7646, 0, 0, 0, 0, 1]}
        - !<FileTransform> {src: ADX_CID_to_RLE.spi1d, interpolation: linear}
        - !<LogTransform> {base: 10, direction: inverse}
        - !<MatrixTransform> {matrix: [0.72286, 0.1263, 0.15084, 0, 0.11923, 0.76418, 0.11659, 0, 0.01427, 0.08213, 0.90359, 0, 0, 0, 0, 1]}

  - !<ColorSpace>
    name: Input - ADX - ADX16
    family: Input/ADX
    equalitygroup: ""
    bitdepth: 16ui
    description: |
      ADX16 color space - used for film scans
      
      ACES Transform ID : ACEScsc.Academy.ADX16_to_ACES
    isdata: false
    allocation: uniform
    allocationvars: [0, 1]
    to_reference: !<GroupTransform>
      children:
        - !<MatrixTransform> {matrix: [8.19188, 0, 0, 0, 0, 8.19188, 0, 0, 0, 0, 8.19188, 0, 0, 0, 0, 1], offset: [-0.19, -0.19, -0.19, 0]}
        - !<MatrixTransform> {matrix: [0.75573, 0.22197, 0.0223, 0, 0.05901, 0.96928, -0.02829, 0, 0.16134, 0.07406, 0.7646, 0, 0, 0, 0, 1]}
        - !<FileTransform> {src: ADX_CID_to_RLE.spi1d, interpolation: linear}
        - !<LogTransform> {base: 10, direction: inverse}
        - !<MatrixTransform> {matrix: [0.72286, 0.1263, 0.15084, 0, 0.11923, 0.76418, 0.11659, 0, 0.01427, 0.08213, 0.90359, 0, 0, 0, 0, 1]}

  - !<ColorSpace>
    name: Input - ARRI - V3 LogC (EI160) - Wide Gamut
    family: Input/ARRI
    equalitygroup: ""
    bitdepth: 32f
    description: |
      V3 LogC (EI160) - Wide Gamut
      
      ACES Transform ID : IDT.ARRI.Alexa-v3-logC-EI160.a1.v1
    isdata: false
    allocation: uniform
    allocationvars: [0, 1]
    to_reference: !<GroupTransform>
      children:
        - !<FileTransform> {src: V3_LogC_160_to_linear.spi1d, interpolation: linear}
        - !<MatrixTransform> {matrix: [0.680206, 0.236137, 0.083658, 0, 0.085415, 1.01747, -0.102886, 0, 0.002057, -0.062563, 1.06051, 0, 0, 0, 0, 1]}

  - !<ColorSpace>
    name: Input - ARRI - V3 LogC (EI200) - Wide Gamut
    family: Input/ARRI
    equalitygroup: ""
    bitdepth: 32f
    description: |
      V3 LogC (EI200) - Wide Gamut
      
      ACES Transform ID : IDT.ARRI.Alexa-v3-logC-EI200.a1.v1
    isdata: false
    allocation: uniform
    allocationvars: [0, 1]
    to_reference: !<GroupTransform>
      children:
        - !<FileTransform> {src: V3_LogC_200_to_linear.spi1d, interpolation: linear}
        - !<MatrixTransform> {matrix: [0.680206, 0.236137, 0.083658, 0, 0.085415, 1.01747, -0.102886, 0, 0.002057, -0.062563, 1.06051, 0, 0, 0, 0, 1]}

  - !<ColorSpace>
    name: Input - ARRI - V3 LogC (EI250) - Wide Gamut
    family: Input/ARRI
    equalitygroup: ""
    bitdepth: 32f
    description: |
      V3 LogC (EI250) - Wide Gamut
      
      ACES Transform ID : IDT.ARRI.Alexa-v3-logC-EI250.a1.v1
    isdata: false
    allocation: uniform
    allocationvars: [0, 1]
    to_reference: !<GroupTransform>
      children:
        - !<FileTransform> {src: V3_LogC_250_to_linear.spi1d, interpolation: linear}
        - !<MatrixTransform> {matrix: [0.680206, 0.236137, 0.083658, 0, 0.085415, 1.01747, -0.102886, 0, 0.002057, -0.062563, 1.06051, 0, 0, 0, 0, 1]}

  - !<ColorSpace>
    name: Input - ARRI - V3 LogC (EI320) - Wide Gamut
    family: Input/ARRI
    equalitygroup: ""
    bitdepth: 32f
    description: |
      V3 LogC (EI320) - Wide Gamut
      
      ACES Transform ID : IDT.ARRI.Alexa-v3-logC-EI320.a1.v1
    isdata: false
    allocation: uniform
    allocationvars: [0, 1]
    to_reference: !<GroupTransform>
      children:
        - !<FileTransform> {src: V3_LogC_320_to_linear.spi1d, interpolation: linear}
        - !<MatrixTransform> {matrix: [0.680206, 0.236137, 0.083658, 0, 0.085415, 1.01747, -0.102886, 0, 0.002057, -0.062563, 1.06051, 0, 0, 0, 0, 1]}

  - !<ColorSpace>
    name: Input - ARRI - V3 LogC (EI400) - Wide Gamut
    family: Input/ARRI
    equalitygroup: ""
    bitdepth: 32f
    description: |
      V3 LogC (EI400) - Wide Gamut
      
      ACES Transform ID : IDT.ARRI.Alexa-v3-logC-EI400.a1.v1
    isdata: false
    allocation: uniform
    allocationvars: [0, 1]
    to_reference: !<GroupTransform>
      children:
        - !<FileTransform> {src: V3_LogC_400_to_linear.spi1d, interpolation: linear}
        - !<MatrixTransform> {matrix: [0.680206, 0.236137, 0.083658, 0, 0.085415, 1.01747, -0.102886, 0, 0.002057, -0.062563, 1.06051, 0, 0, 0, 0, 1]}

  - !<ColorSpace>
    name: Input - ARRI - V3 LogC (EI500) - Wide Gamut
    family: Input/ARRI
    equalitygroup: ""
    bitdepth: 32f
    description: |
      V3 LogC (EI500) - Wide Gamut
      
      ACES Transform ID : IDT.ARRI.Alexa-v3-logC-EI500.a1.v1
    isdata: false
    allocation: uniform
    allocationvars: [0, 1]
    to_reference: !<GroupTransform>
      children:
        - !<FileTransform> {src: V3_LogC_500_to_linear.spi1d, interpolation: linear}
        - !<MatrixTransform> {matrix: [0.680206, 0.236137, 0.083658, 0, 0.085415, 1.01747, -0.102886, 0, 0.002057, -0.062563, 1.06051, 0, 0, 0, 0, 1]}

  - !<ColorSpace>
    name: Input - ARRI - V3 LogC (EI640) - Wide Gamut
    family: Input/ARRI
    equalitygroup: ""
    bitdepth: 32f
    description: |
      V3 LogC (EI640) - Wide Gamut
      
      ACES Transform ID : IDT.ARRI.Alexa-v3-logC-EI640.a1.v1
    isdata: false
    allocation: uniform
    allocationvars: [0, 1]
    to_reference: !<GroupTransform>
      children:
        - !<FileTransform> {src: V3_LogC_640_to_linear.spi1d, interpolation: linear}
        - !<MatrixTransform> {matrix: [0.680206, 0.236137, 0.083658, 0, 0.085415, 1.01747, -0.102886, 0, 0.002057, -0.062563, 1.06051, 0, 0, 0, 0, 1]}

  - !<ColorSpace>
    name: Input - ARRI - V3 LogC (EI800) - Wide Gamut
    family: Input/ARRI
    equalitygroup: ""
    bitdepth: 32f
    description: |
      V3 LogC (EI800) - Wide Gamut
      
      ACES Transform ID : IDT.ARRI.Alexa-v3-logC-EI800.a1.v1
    isdata: false
    allocation: uniform
    allocationvars: [0, 1]
    to_reference: !<GroupTransform>
      children:
        - !<FileTransform> {src: V3_LogC_800_to_linear.spi1d, interpolation: linear}
        - !<MatrixTransform> {matrix: [0.680206, 0.236137, 0.083658, 0, 0.085415, 1.01747, -0.102886, 0, 0.002057, -0.062563, 1.06051, 0, 0, 0, 0, 1]}

  - !<ColorSpace>
    name: Input - ARRI - V3 LogC (EI1000) - Wide Gamut
    family: Input/ARRI
    equalitygroup: ""
    bitdepth: 32f
    description: |
      V3 LogC (EI1000) - Wide Gamut
      
      ACES Transform ID : IDT.ARRI.Alexa-v3-logC-EI1000.a1.v1
    isdata: false
    allocation: uniform
    allocationvars: [0, 1]
    to_reference: !<GroupTransform>
      children:
        - !<FileTransform> {src: V3_LogC_1000_to_linear.spi1d, interpolation: linear}
        - !<MatrixTransform> {matrix: [0.680206, 0.236137, 0.083658, 0, 0.085415, 1.01747, -0.102886, 0, 0.002057, -0.062563, 1.06051, 0, 0, 0, 0, 1]}

  - !<ColorSpace>
    name: Input - ARRI - V3 LogC (EI1280) - Wide Gamut
    family: Input/ARRI
    equalitygroup: ""
    bitdepth: 32f
    description: |
      V3 LogC (EI1280) - Wide Gamut
      
      ACES Transform ID : IDT.ARRI.Alexa-v3-logC-EI1280.a1.v1
    isdata: false
    allocation: uniform
    allocationvars: [0, 1]
    to_reference: !<GroupTransform>
      children:
        - !<FileTransform> {src: V3_LogC_1280_to_linear.spi1d, interpolation: linear}
        - !<MatrixTransform> {matrix: [0.680206, 0.236137, 0.083658, 0, 0.085415, 1.01747, -0.102886, 0, 0.002057, -0.062563, 1.06051, 0, 0, 0, 0, 1]}

  - !<ColorSpace>
    name: Input - ARRI - V3 LogC (EI1600) - Wide Gamut
    family: Input/ARRI
    equalitygroup: ""
    bitdepth: 32f
    description: |
      V3 LogC (EI1600) - Wide Gamut
      
      ACES Transform ID : IDT.ARRI.Alexa-v3-logC-EI1600.a1.v1
    isdata: false
    allocation: uniform
    allocationvars: [0, 1]
    to_reference: !<GroupTransform>
      children:
        - !<FileTransform> {src: V3_LogC_1600_to_linear.spi1d, interpolation: linear}
        - !<MatrixTransform> {matrix: [0.680206, 0.236137, 0.083658, 0, 0.085415, 1.01747, -0.102886, 0, 0.002057, -0.062563, 1.06051, 0, 0, 0, 0, 1]}

  - !<ColorSpace>
    name: Input - ARRI - V3 LogC (EI2000) - Wide Gamut
    family: Input/ARRI
    equalitygroup: ""
    bitdepth: 32f
    description: |
      V3 LogC (EI2000) - Wide Gamut
      
      ACES Transform ID : IDT.ARRI.Alexa-v3-logC-EI2000.a1.v1
    isdata: false
    allocation: uniform
    allocationvars: [0, 1]
    to_reference: !<GroupTransform>
      children:
        - !<FileTransform> {src: V3_LogC_2000_to_linear.spi1d, interpolation: linear}
        - !<MatrixTransform> {matrix: [0.680206, 0.236137, 0.083658, 0, 0.085415, 1.01747, -0.102886, 0, 0.002057, -0.062563, 1.06051, 0, 0, 0, 0, 1]}

  - !<ColorSpace>
    name: Input - ARRI - V3 LogC (EI2560) - Wide Gamut
    family: Input/ARRI
    equalitygroup: ""
    bitdepth: 32f
    description: |
      V3 LogC (EI2560) - Wide Gamut
      
      ACES Transform ID : IDT.ARRI.Alexa-v3-logC-EI2560.a1.v1
    isdata: false
    allocation: uniform
    allocationvars: [0, 1]
    to_reference: !<GroupTransform>
      children:
        - !<FileTransform> {src: V3_LogC_2560_to_linear.spi1d, interpolation: linear}
        - !<MatrixTransform> {matrix: [0.680206, 0.236137, 0.083658, 0, 0.085415, 1.01747, -0.102886, 0, 0.002057, -0.062563, 1.06051, 0, 0, 0, 0, 1]}

  - !<ColorSpace>
    name: Input - ARRI - V3 LogC (EI3200) - Wide Gamut
    family: Input/ARRI
    equalitygroup: ""
    bitdepth: 32f
    description: |
      V3 LogC (EI3200) - Wide Gamut
      
      ACES Transform ID : IDT.ARRI.Alexa-v3-logC-EI3200.a1.v1
    isdata: false
    allocation: uniform
    allocationvars: [0, 1]
    to_reference: !<GroupTransform>
      children:
        - !<FileTransform> {src: V3_LogC_3200_to_linear.spi1d, interpolation: linear}
        - !<MatrixTransform> {matrix: [0.680206, 0.236137, 0.083658, 0, 0.085415, 1.01747, -0.102886, 0, 0.002057, -0.062563, 1.06051, 0, 0, 0, 0, 1]}

  - !<ColorSpace>
    name: Input - ARRI - Curve - V3 LogC (EI800)
    family: Input/ARRI
    equalitygroup: ""
    bitdepth: 32f
    description: |
      Curve - V3 LogC (EI800)
    isdata: false
    allocation: uniform
    allocationvars: [0, 1]
    to_reference: !<FileTransform> {src: V3_LogC_800_to_linear.spi1d, interpolation: linear}

  - !<ColorSpace>
    name: Input - ARRI - Linear - ALEXA Wide Gamut
    family: Input/ARRI
    equalitygroup: ""
    bitdepth: 32f
    description: |
      Linear - ALEXA Wide Gamut
    isdata: false
    allocation: lg2
    allocationvars: [-8, 5, 0.00390625]
    to_reference: !<MatrixTransform> {matrix: [0.680206, 0.236137, 0.083658, 0, 0.085415, 1.01747, -0.102886, 0, 0.002057, -0.062563, 1.06051, 0, 0, 0, 0, 1]}

  - !<ColorSpace>
    name: Input - Canon - Canon-Log - Rec. 709 Daylight
    family: Input/Canon
    equalitygroup: ""
    bitdepth: 32f
    description: |
      Canon-Log - Rec. 709 Daylight
    isdata: false
    allocation: uniform
    allocationvars: [0, 1]
    to_reference: !<GroupTransform>
      children:
        - !<FileTransform> {src: Canon-Log_to_linear.spi1d, interpolation: linear}
        - !<MatrixTransform> {matrix: [0.561539, 0.40206, 0.0364009, 0, 0.0927396, 0.924121, -0.0168608, 0, 0.084813, 0.00637383, 0.908813, 0, 0, 0, 0, 1]}

  - !<ColorSpace>
    name: Input - Canon - Canon-Log - Rec. 709 Tungsten
    family: Input/Canon
    equalitygroup: ""
    bitdepth: 32f
    description: |
      Canon-Log - Rec. 709 Tungsten
    isdata: false
    allocation: uniform
    allocationvars: [0, 1]
    to_reference: !<GroupTransform>
      children:
        - !<FileTransform> {src: Canon-Log_to_linear.spi1d, interpolation: linear}
        - !<MatrixTransform> {matrix: [0.566996, 0.365079, 0.0679242, 0, 0.070901, 0.880331, 0.0487679, 0, 0.0730135, -0.0665409, 0.993527, 0, 0, 0, 0, 1]}

  - !<ColorSpace>
    name: Input - Canon - Canon-Log - DCI-P3 Daylight
    family: Input/Canon
    equalitygroup: ""
    bitdepth: 32f
    description: |
      Canon-Log - DCI-P3 Daylight
    isdata: false
    allocation: uniform
    allocationvars: [0, 1]
    to_reference: !<GroupTransform>
      children:
        - !<FileTransform> {src: Canon-Log_to_linear.spi1d, interpolation: linear}
        - !<MatrixTransform> {matrix: [0.607161, 0.299507, 0.0933321, 0, 0.00496812, 1.05098, -0.0559503, 0, -0.00783994, 0.000809127, 1.00703, 0, 0, 0, 0, 1]}

  - !<ColorSpace>
    name: Input - Canon - Canon-Log - DCI-P3 Tungsten
    family: Input/Canon
    equalitygroup: ""
    bitdepth: 32f
    description: |
      Canon-Log - DCI-P3 Tungsten
    isdata: false
    allocation: uniform
    allocationvars: [0, 1]
    to_reference: !<GroupTransform>
      children:
        - !<FileTransform> {src: Canon-Log_to_linear.spi1d, interpolation: linear}
        - !<MatrixTransform> {matrix: [0.650279, 0.25388, 0.0958407, 0, -0.026138, 1.0179, 0.00823746, 0, 0.00775756, -0.0630817, 1.05532, 0, 0, 0, 0, 1]}

  - !<ColorSpace>
    name: Input - Canon - Canon-Log - Cinema Gamut Daylight
    family: Input/Canon
    equalitygroup: ""
    bitdepth: 32f
    description: |
      Canon-Log - Cinema Gamut Daylight
    isdata: false
    allocation: uniform
    allocationvars: [0, 1]
    to_reference: !<GroupTransform>
      children:
        - !<FileTransform> {src: Canon-Log_to_linear.spi1d, interpolation: linear}
        - !<MatrixTransform> {matrix: [0.763064, 0.149021, 0.0879144, 0, 0.00365746, 1.10696, -0.110618, 0, -0.00940779, -0.218383, 1.22779, 0, 0, 0, 0, 1]}

  - !<ColorSpace>
    name: Input - Canon - Canon-Log - Cinema Gamut Tungsten
    family: Input/Canon
    equalitygroup: ""
    bitdepth: 32f
    description: |
      Canon-Log - Cinema Gamut Tungsten
    isdata: false
    allocation: uniform
    allocationvars: [0, 1]
    to_reference: !<GroupTransform>
      children:
        - !<FileTransform> {src: Canon-Log_to_linear.spi1d, interpolation: linear}
        - !<MatrixTransform> {matrix: [0.817416, 0.0907557, 0.091828, 0, -0.0353614, 1.06569, -0.0303292, 0, 0.0103904, -0.299271, 1.28888, 0, 0, 0, 0, 1]}

  - !<ColorSpace>
    name: Input - Canon - Canon-Log - Rec. 2020 Daylight
    family: Input/Canon
    equalitygroup: ""
    bitdepth: 32f
    description: |
      Canon-Log - Rec. 2020 Daylight
    isdata: false
    allocation: uniform
    allocationvars: [0, 1]
    to_reference: !<GroupTransform>
      children:
        - !<FileTransform> {src: Canon-Log_to_linear.spi1d, interpolation: linear}
        - !<MatrixTransform> {matrix: [0.678891, 0.158868, 0.16224, 0, 0.0455708, 0.860713, 0.0937164, 0, -0.00048571, 0.0250602, 0.975426, 0, 0, 0, 0, 1]}

  - !<ColorSpace>
    name: Input - Canon - Canon-Log - Rec. 2020 Tungsten
    family: Input/Canon
    equalitygroup: ""
    bitdepth: 32f
    description: |
      Canon-Log - Rec. 2020 Tungsten
    isdata: false
    allocation: uniform
    allocationvars: [0, 1]
    to_reference: !<GroupTransform>
      children:
        - !<FileTransform> {src: Canon-Log_to_linear.spi1d, interpolation: linear}
        - !<MatrixTransform> {matrix: [0.724489, 0.115141, 0.160371, 0, 0.0106593, 0.839605, 0.149735, 0, 0.0145602, -0.0285621, 1.014, 0, 0, 0, 0, 1]}

  - !<ColorSpace>
    name: Input - Canon - Canon-Log2 - Rec. 2020 Daylight
    family: Input/Canon
    equalitygroup: ""
    bitdepth: 32f
    description: |
      Canon-Log2 - Rec. 2020 Daylight
    isdata: false
    allocation: uniform
    allocationvars: [0, 1]
    to_reference: !<GroupTransform>
      children:
        - !<FileTransform> {src: Canon-Log2_to_linear.spi1d, interpolation: linear}
        - !<MatrixTransform> {matrix: [0.678891, 0.158868, 0.16224, 0, 0.0455708, 0.860713, 0.0937164, 0, -0.00048571, 0.0250602, 0.975426, 0, 0, 0, 0, 1]}

  - !<ColorSpace>
    name: Input - Canon - Canon-Log2 - Rec. 2020 Tungsten
    family: Input/Canon
    equalitygroup: ""
    bitdepth: 32f
    description: |
      Canon-Log2 - Rec. 2020 Tungsten
    isdata: false
    allocation: uniform
    allocationvars: [0, 1]
    to_reference: !<GroupTransform>
      children:
        - !<FileTransform> {src: Canon-Log2_to_linear.spi1d, interpolation: linear}
        - !<MatrixTransform> {matrix: [0.724489, 0.115141, 0.160371, 0, 0.0106593, 0.839605, 0.149735, 0, 0.0145602, -0.0285621, 1.014, 0, 0, 0, 0, 1]}

  - !<ColorSpace>
    name: Input - Canon - Canon-Log2 - Cinema Gamut Daylight
    family: Input/Canon
    equalitygroup: ""
    bitdepth: 32f
    description: |
      Canon-Log2 - Cinema Gamut Daylight
    isdata: false
    allocation: uniform
    allocationvars: [0, 1]
    to_reference: !<GroupTransform>
      children:
        - !<FileTransform> {src: Canon-Log2_to_linear.spi1d, interpolation: linear}
        - !<MatrixTransform> {matrix: [0.763064, 0.149021, 0.0879144, 0, 0.00365746, 1.10696, -0.110618, 0, -0.00940779, -0.218383, 1.22779, 0, 0, 0, 0, 1]}

  - !<ColorSpace>
    name: Input - Canon - Canon-Log2 - Cinema Gamut Tungsten
    family: Input/Canon
    equalitygroup: ""
    bitdepth: 32f
    description: |
      Canon-Log2 - Cinema Gamut Tungsten
    isdata: false
    allocation: uniform
    allocationvars: [0, 1]
    to_reference: !<GroupTransform>
      children:
        - !<FileTransform> {src: Canon-Log2_to_linear.spi1d, interpolation: linear}
        - !<MatrixTransform> {matrix: [0.817416, 0.0907557, 0.091828, 0, -0.0353614, 1.06569, -0.0303292, 0, 0.0103904, -0.299271, 1.28888, 0, 0, 0, 0, 1]}

  - !<ColorSpace>
    name: Input - Canon - Canon-Log3 - Rec. 2020 Daylight
    family: Input/Canon
    equalitygroup: ""
    bitdepth: 32f
    description: |
      Canon-Log3 - Rec. 2020 Daylight
    isdata: false
    allocation: uniform
    allocationvars: [0, 1]
    to_reference: !<GroupTransform>
      children:
        - !<FileTransform> {src: Canon-Log3_to_linear.spi1d, interpolation: linear}
        - !<MatrixTransform> {matrix: [0.678891, 0.158868, 0.16224, 0, 0.0455708, 0.860713, 0.0937164, 0, -0.00048571, 0.0250602, 0.975426, 0, 0, 0, 0, 1]}

  - !<ColorSpace>
    name: Input - Canon - Canon-Log3 - Rec. 2020 Tungsten
    family: Input/Canon
    equalitygroup: ""
    bitdepth: 32f
    description: |
      Canon-Log3 - Rec. 2020 Tungsten
    isdata: false
    allocation: uniform
    allocationvars: [0, 1]
    to_reference: !<GroupTransform>
      children:
        - !<FileTransform> {src: Canon-Log3_to_linear.spi1d, interpolation: linear}
        - !<MatrixTransform> {matrix: [0.724489, 0.115141, 0.160371, 0, 0.0106593, 0.839605, 0.149735, 0, 0.0145602, -0.0285621, 1.014, 0, 0, 0, 0, 1]}

  - !<ColorSpace>
    name: Input - Canon - Canon-Log3 - Cinema Gamut Daylight
    family: Input/Canon
    equalitygroup: ""
    bitdepth: 32f
    description: |
      Canon-Log3 - Cinema Gamut Daylight
    isdata: false
    allocation: uniform
    allocationvars: [0, 1]
    to_reference: !<GroupTransform>
      children:
        - !<FileTransform> {src: Canon-Log3_to_linear.spi1d, interpolation: linear}
        - !<MatrixTransform> {matrix: [0.763064, 0.149021, 0.0879144, 0, 0.00365746, 1.10696, -0.110618, 0, -0.00940779, -0.218383, 1.22779, 0, 0, 0, 0, 1]}

  - !<ColorSpace>
    name: Input - Canon - Canon-Log3 - Cinema Gamut Tungsten
    family: Input/Canon
    equalitygroup: ""
    bitdepth: 32f
    description: |
